/* XPM */
static char * linux_xpm[] = {
"36 36 599 2",
"  	c #BFB6AC",
". 	c #BDB099",
"+ 	c #BDB196",
"@ 	c #BCB294",
"# 	c #BDB296",
"$ 	c #BDB298",
"% 	c #BDB299",
"& 	c #BDB29A",
"* 	c #BCB198",
"= 	c #BDB195",
"- 	c #BDB294",
"; 	c #BDB198",
"> 	c #BDB297",
", 	c #BDB295",
"' 	c #BDB394",
") 	c #BEB296",
"! 	c #BEB299",
"~ 	c #BFB299",
"{ 	c #BFB597",
"] 	c #BFB498",
"^ 	c #BEB499",
"/ 	c #BEB399",
"( 	c #BBB199",
"_ 	c #BAB299",
": 	c #A9A493",
"< 	c #BEB29C",
"[ 	c #B9A67D",
"} 	c #BBA57E",
"| 	c #B9A67C",
"1 	c #BAA77E",
"2 	c #BAA67D",
"3 	c #BBA57C",
"4 	c #BAA47C",
"5 	c #BAA47B",
"6 	c #BAA57C",
"7 	c #B8A57B",
"8 	c #B9A57B",
"9 	c #B7A47A",
"0 	c #B8A279",
"a 	c #A09076",
"b 	c #BBAE9A",
"c 	c #BCA67C",
"d 	c #BAA77B",
"e 	c #BAA77C",
"f 	c #BBA87D",
"g 	c #BBA77D",
"h 	c #BCA67D",
"i 	c #BBA67C",
"j 	c #BAA67C",
"k 	c #BBA47C",
"l 	c #A19177",
"m 	c #BBAD9A",
"n 	c #BCA67B",
"o 	c #BAA879",
"p 	c #BCA77C",
"q 	c #BBA67B",
"r 	c #A29279",
"s 	c #BCAE9A",
"t 	c #B9A57C",
"u 	c #BBA57B",
"v 	c #BCA77B",
"w 	c #BDA77D",
"x 	c #BAA57B",
"y 	c #BAA67E",
"z 	c #BCA57E",
"A 	c #A3937B",
"B 	c #BCAE99",
"C 	c #BCA37D",
"D 	c #BCA67E",
"E 	c #BBA57D",
"F 	c #BCA57C",
"G 	c #BBA77F",
"H 	c #BDA781",
"I 	c #A6967E",
"J 	c #BBAF9B",
"K 	c #B9A47F",
"L 	c #BBA482",
"M 	c #A1896A",
"N 	c #AE9276",
"O 	c #C1A487",
"P 	c #C2A788",
"Q 	c #BFA684",
"R 	c #BEA580",
"S 	c #BBA37C",
"T 	c #BAA67B",
"U 	c #BAA57D",
"V 	c #BAA17B",
"W 	c #BCA27C",
"X 	c #BBA27B",
"Y 	c #BBA27C",
"Z 	c #B99D7C",
"` 	c #AB8F73",
" .	c #9E8465",
"..	c #BEA680",
"+.	c #BDA882",
"@.	c #A79881",
"#.	c #BBB09D",
"$.	c #BDA885",
"%.	c #BEA888",
"&.	c #B3967A",
"*.	c #4A130A",
"=.	c #562D24",
"-.	c #7B5648",
";.	c #957561",
">.	c #A6886E",
",.	c #AF9274",
"'.	c #B69777",
").	c #BA9B7A",
"!.	c #BC9F7C",
"~.	c #BDA07C",
"{.	c #BFA27D",
"].	c #BEA47D",
"^.	c #BDA57D",
"/.	c #BEA581",
"(.	c #BFA680",
"_.	c #BDA583",
":.	c #BDA483",
"<.	c #BEA382",
"[.	c #BC9F80",
"}.	c #BA9B7D",
"|.	c #B19277",
"1.	c #A5846E",
"2.	c #94735E",
"3.	c #7C5B4A",
"4.	c #512F24",
"5.	c #3A0B05",
"6.	c #A17F67",
"7.	c #BDA47E",
"8.	c #BCA87F",
"9.	c #A7977F",
"0.	c #BEB29E",
"a.	c #BDA883",
"b.	c #BCA783",
"c.	c #C4A787",
"d.	c #825C4F",
"e.	c #4B130D",
"f.	c #4C0E0D",
"g.	c #470A0B",
"h.	c #440808",
"i.	c #420A05",
"j.	c #4D211A",
"k.	c #573027",
"l.	c #643E33",
"m.	c #6D483B",
"n.	c #775444",
"o.	c #7D5C4A",
"p.	c #81604E",
"q.	c #856354",
"r.	c #856455",
"s.	c #836252",
"t.	c #7F5F4E",
"u.	c #775445",
"v.	c #724D3E",
"w.	c #6E4639",
"x.	c #63392D",
"y.	c #5A2B1F",
"z.	c #4F1308",
"A.	c #470807",
"B.	c #480A0A",
"C.	c #470B0D",
"D.	c #3E0C08",
"E.	c #604339",
"F.	c #BD9C80",
"G.	c #B9A279",
"H.	c #A49478",
"I.	c #BCA780",
"J.	c #BAA57E",
"K.	c #AB8D75",
"L.	c #745347",
"M.	c #450D0D",
"N.	c #490B0F",
"O.	c #4A0D10",
"P.	c #4B0E0E",
"Q.	c #4C0E0C",
"R.	c #4E0F0B",
"S.	c #4F0F0A",
"T.	c #4E1108",
"U.	c #4C1207",
"V.	c #4D120B",
"W.	c #4B0F0B",
"X.	c #4A0D0C",
"Y.	c #470C0C",
"Z.	c #490E0D",
"`.	c #470D0A",
" +	c #470D09",
".+	c #490E0C",
"++	c #4C100F",
"@+	c #4E0F0E",
"#+	c #51100D",
"$+	c #53120D",
"%+	c #50120C",
"&+	c #4F0F0F",
"*+	c #6D483E",
"=+	c #A4866E",
"-+	c #BCA07B",
";+	c #BAA479",
">+	c #B7A377",
",+	c #A08F74",
"'+	c #BEB09C",
")+	c #B9A57A",
"!+	c #BAA478",
"~+	c #B7A27A",
"{+	c #BB9B81",
"]+	c #563428",
"^+	c #480E0A",
"/+	c #500F0C",
"(+	c #52120D",
"_+	c #50110B",
":+	c #54100B",
"<+	c #55100A",
"[+	c #52100A",
"}+	c #4F120A",
"|+	c #4E110D",
"1+	c #4C0C0D",
"2+	c #4B0B0E",
"3+	c #470B0E",
"4+	c #460B0B",
"5+	c #460C0A",
"6+	c #480C0D",
"7+	c #4B0D0F",
"8+	c #4F0F10",
"9+	c #53120C",
"0+	c #53110C",
"a+	c #51130D",
"b+	c #512119",
"c+	c #C59E88",
"d+	c #C0A483",
"e+	c #BBA37B",
"f+	c #B9A47A",
"g+	c #B9A479",
"h+	c #A28F74",
"i+	c #BDAF9B",
"j+	c #B9A378",
"k+	c #B8A578",
"l+	c #BBA676",
"m+	c #BAA574",
"n+	c #AB8E73",
"o+	c #8F705C",
"p+	c #896653",
"q+	c #87604E",
"r+	c #6E3F34",
"s+	c #54130B",
"t+	c #652E28",
"u+	c #7E5148",
"v+	c #7A5147",
"w+	c #774F46",
"x+	c #6B453D",
"y+	c #410B08",
"z+	c #3F0908",
"A+	c #603B36",
"B+	c #705046",
"C+	c #714F46",
"D+	c #724F47",
"E+	c #5B3430",
"F+	c #460D0B",
"G+	c #5E342D",
"H+	c #855A4C",
"I+	c #8A6352",
"J+	c #91705B",
"K+	c #A4876C",
"L+	c #C0A883",
"M+	c #BAA87D",
"N+	c #A28F77",
"O+	c #BFA47F",
"P+	c #C1A681",
"Q+	c #C0A67F",
"R+	c #C4A681",
"S+	c #9F7966",
"T+	c #4D0F0B",
"U+	c #896050",
"V+	c #C3A37F",
"W+	c #C0A17B",
"X+	c #BD9F7B",
"Y+	c #AF8C74",
"Z+	c #451108",
"`+	c #460D09",
" @	c #A47F6D",
".@	c #BFA282",
"+@	c #BC9F7E",
"@@	c #B99E7E",
"#@	c #977465",
"$@	c #400506",
"%@	c #846253",
"&@	c #C1A37E",
"*@	c #C1A87D",
"=@	c #C0A782",
"-@	c #BFA781",
";@	c #BEA87E",
">@	c #BDA77E",
",@	c #BDA67C",
"'@	c #BDA67F",
")@	c #BDB197",
"!@	c #BBA67D",
"~@	c #BBA97E",
"{@	c #BDA780",
"]@	c #C1A687",
"^@	c #BEA185",
"/@	c #BEA186",
"(@	c #BA9C83",
"_@	c #947466",
":@	c #3D0A05",
"<@	c #7F5E51",
"[@	c #BA9C81",
"}@	c #BD9E7F",
"|@	c #BEA483",
"1@	c #B6927B",
"2@	c #50120A",
"3@	c #550F0B",
"4@	c #AD8473",
"5@	c #C2A888",
"6@	c #C1A686",
"7@	c #BFA488",
"8@	c #9E7C6E",
"9@	c #3D0605",
"0@	c #805E53",
"a@	c #BE9C81",
"b@	c #BE9D7E",
"c@	c #BF9F82",
"d@	c #BCA07F",
"e@	c #BDA57B",
"f@	c #BCA679",
"g@	c #BCA67A",
"h@	c #BEA880",
"i@	c #A4957D",
"j@	c #BAA77D",
"k@	c #BEA87F",
"l@	c #C2A684",
"m@	c #997964",
"n@	c #5C3A2F",
"o@	c #5E3B32",
"p@	c #5A3731",
"q@	c #4E2825",
"r@	c #3C0805",
"s@	c #4B231E",
"t@	c #69463F",
"u@	c #6D493F",
"v@	c #744E42",
"w@	c #784B42",
"x@	c #54110B",
"y@	c #56100B",
"z@	c #70413A",
"A@	c #785246",
"B@	c #7A5144",
"C@	c #764F44",
"D@	c #5F332E",
"E@	c #440C08",
"F@	c #4C231E",
"G@	c #5D3830",
"H@	c #5A362C",
"I@	c #56342A",
"J@	c #7B5D47",
"K@	c #BCA07A",
"L@	c #BAA475",
"M@	c #BBA578",
"N@	c #BCB197",
"O@	c #B9A67B",
"P@	c #C2A785",
"Q@	c #957560",
"R@	c #340601",
"S@	c #380806",
"T@	c #390607",
"U@	c #3F0708",
"V@	c #420908",
"W@	c #3F0705",
"X@	c #3D0503",
"Y@	c #400703",
"Z@	c #470904",
"`@	c #460B04",
" #	c #440C03",
".#	c #430C03",
"+#	c #450A03",
"@#	c #480A04",
"##	c #4B0B02",
"$#	c #490A05",
"%#	c #4A0B07",
"&#	c #4C0E0B",
"*#	c #450C08",
"=#	c #3D0906",
"-#	c #380706",
";#	c #350905",
">#	c #765B4A",
",#	c #B99D7B",
"'#	c #BAA379",
")#	c #BBA479",
"!#	c #BBA47D",
"~#	c #A3947C",
"{#	c #B9A87C",
"]#	c #B9A47C",
"^#	c #B3997A",
"/#	c #AB8F75",
"(#	c #AA8E75",
"_#	c #AC8B75",
":#	c #8C6558",
"<#	c #480E0C",
"[#	c #855F55",
"}#	c #B99880",
"|#	c #B6977C",
"1#	c #B49478",
"2#	c #B39375",
"3#	c #B19073",
"4#	c #B09073",
"5#	c #B09173",
"6#	c #B49376",
"7#	c #B69679",
"8#	c #9C7563",
"9#	c #855B51",
"0#	c #BC957E",
"a#	c #B6967F",
"b#	c #B49580",
"c#	c #B3977C",
"d#	c #BAA17C",
"e#	c #BAA47A",
"f#	c #A2937B",
"g#	c #BAA37A",
"h#	c #BBA27D",
"i#	c #BBA27E",
"j#	c #BAA37E",
"k#	c #C0A480",
"l#	c #926E59",
"m#	c #4E0F0D",
"n#	c #8A6858",
"o#	c #C0A984",
"p#	c #BDA87F",
"q#	c #BCA57A",
"r#	c #BDA47C",
"s#	c #BCA37B",
"t#	c #BCA47B",
"u#	c #BBA57A",
"v#	c #B8A17A",
"w#	c #A18067",
"x#	c #480B08",
"y#	c #7D594A",
"z#	c #C2A782",
"A#	c #BEA77D",
"B#	c #BDA580",
"C#	c #BDA77F",
"D#	c #BAA57A",
"E#	c #BCB09B",
"F#	c #BBA580",
"G#	c #BEA480",
"H#	c #866455",
"I#	c #4A0D09",
"J#	c #876857",
"K#	c #BDA57E",
"L#	c #BCA47C",
"M#	c #9C7C65",
"N#	c #430A08",
"O#	c #6F493E",
"P#	c #C1A584",
"Q#	c #A2937A",
"R#	c #BBA581",
"S#	c #BBA47B",
"T#	c #BFA481",
"U#	c #7E5D4F",
"V#	c #490B09",
"W#	c #876858",
"X#	c #BDA47D",
"Y#	c #9C7C66",
"Z#	c #623A30",
"`#	c #C1A483",
" $	c #B9A67E",
".$	c #BFA582",
"+$	c #704C3F",
"@$	c #4A0D0A",
"#$	c #876757",
"$$	c #BDA47F",
"%$	c #BCA57D",
"&$	c #9D7D67",
"*$	c #440A09",
"=$	c #582D22",
"-$	c #C0A282",
";$	c #BCB09A",
">$	c #C0A583",
",$	c #613C2F",
"'$	c #4B0E0C",
")$	c #856657",
"!$	c #BAA47D",
"~$	c #9D7E67",
"{$	c #450A08",
"]$	c #502116",
"^$	c #BEA481",
"/$	c #552E21",
"($	c #856658",
"_$	c #BAA47E",
":$	c #9C7E67",
"<$	c #450A09",
"[$	c #BA9B7B",
"}$	c #BAA57F",
"|$	c #BEA080",
"1$	c #4D1F14",
"2$	c #490D0B",
"3$	c #866657",
"4$	c #BEA583",
"5$	c #460908",
"6$	c #440C07",
"7$	c #B79878",
"8$	c #BCB09C",
"9$	c #BCA47E",
"0$	c #BB997C",
"a$	c #47110A",
"b$	c #4A0F0C",
"c$	c #886656",
"d$	c #BEA585",
"e$	c #9B7E66",
"f$	c #480909",
"g$	c #470C08",
"h$	c #AF9073",
"i$	c #BCA57B",
"j$	c #B79478",
"k$	c #440B07",
"l$	c #480C0A",
"m$	c #876656",
"n$	c #BBA77C",
"o$	c #480A0B",
"p$	c #480D09",
"q$	c #A5886D",
"r$	c #A2947A",
"s$	c #AF8D71",
"t$	c #450A07",
"u$	c #866656",
"v$	c #BEA584",
"w$	c #BDA57C",
"x$	c #9A7E65",
"y$	c #46090A",
"z$	c #4A0E0B",
"A$	c #A0846B",
"B$	c #BDA37E",
"C$	c #A8856A",
"D$	c #490B08",
"E$	c #4C0F0D",
"F$	c #997E64",
"G$	c #470C0B",
"H$	c #997D67",
"I$	c #A19379",
"J$	c #BCAF9C",
"K$	c #9F8065",
"L$	c #4D0F0D",
"M$	c #BEA685",
"N$	c #977E63",
"O$	c #440909",
"P$	c #4B0F0F",
"Q$	c #90745F",
"R$	c #BCB099",
"S$	c #BBA57F",
"T$	c #A18769",
"U$	c #6C4A3C",
"V$	c #6B4B3A",
"W$	c #93775E",
"X$	c #BDA57F",
"Y$	c #BCA47D",
"Z$	c #BAA17D",
"`$	c #9E8368",
" %	c #5F4230",
".%	c #644435",
"+%	c #91765D",
"@%	c #BBA47A",
"#%	c #A2927A",
"$%	c #BAA37D",
"%%	c #C3A487",
"&%	c #C2A485",
"*%	c #BFA581",
"=%	c #BDA67D",
"-%	c #B9A07A",
";%	c #BCA07E",
">%	c #BFA181",
",%	c #A2927B",
"'%	c #BBA67F",
")%	c #BAA679",
"!%	c #BAA578",
"~%	c #BBA579",
"{%	c #BAA378",
"]%	c #BBA379",
"^%	c #BBA279",
"/%	c #B9A57D",
"(%	c #B9A47B",
"_%	c #A09079",
":%	c #BBA47F",
"<%	c #A09078",
"[%	c #BBAF9A",
"}%	c #B9A47E",
"|%	c #B8A47B",
"1%	c #B6A17A",
"2%	c #9E8F78",
"3%	c #A59F96",
"4%	c #9E9279",
"5%	c #A09377",
"6%	c #A4947C",
"7%	c #A2947C",
"8%	c #A2947B",
"9%	c #A2937C",
"0%	c #A1957B",
"a%	c #A1967C",
"b%	c #A0957C",
"c%	c #A0947B",
"d%	c #A0937B",
"e%	c #9F9179",
"f%	c #9E8F77",
"g%	c #9C8F77",
"h%	c #888073",
"  . + @ # $ % & $ * . . + = - - = ; % % > , - ' ) ! ~ { ] ] ^ / % ( _ : ",
"< [ } | [ 1 1 1 1 2 3 3 3 3 3 4 5 5 4 5 5 6 3 3 3 3 6 | | 7 7 7 8 9 0 a ",
"b 2 c d e e e f f g h h 3 3 3 3 3 3 3 3 3 3 3 3 3 3 3 | | | | | i j k l ",
"m 2 n o p p p p p q 5 3 3 3 3 3 3 3 3 3 3 3 3 h 3 3 3 h 3 3 3 3 3 [ k r ",
"s t u v w p q q q x 3 3 3 3 3 3 3 3 3 3 3 3 3 3 3 3 3 3 3 3 3 3 h y z A ",
"B k C h D E E E E 3 3 3 3 3 3 3 3 3 3 3 3 3 3 3 3 3 5 5 5 5 3 F h G H I ",
"J K L M N O P Q R S F 5 i i 8 T i x U 6 x | t 4 E z V W X Y Z `  ...+.@.",
"#.$.%.&.*.=.-.;.>.,.'.).!.~.{.].^.R /.(.(._.:.<.[.}.|.1.2.3.4.5.6.7.8.9.",
"0.a.b.c.d.e.f.g.h.i.j.k.l.m.n.o.p.q.r.s.t.u.v.w.x.y.z.A.B.C.D.E.F.G.T H.",
"0.I.J.W K.L.M.N.O.P.Q.R.S.T.U.V.W.X.Y.Z.`. +.+++@+#+$+%+&+++*+=+-+;+>+,+",
"'+F )+!+~+{+]+^+/+(+_+:+<+[+}+|+1+2+N.3+4+5+6+7+8+#+9+0+a+b+c+d+e+f+g+h+",
"i+j+k+l+m+X n+o+p+q+r+s+t+u+v+w+x+y+z+A+B+C+D+E+F+G+H+I+J+K+L+M+T | 6 N+",
"; 4 )+3 p F O+P+Q+R+S+T+U+V+W+X+Y+Z+`+ @.@+@@@#@$@%@&@*@=@-@;@>@,@c '@A ",
")@E j !@~@{@]@^@/@(@_@:@<@[@}@|@1@2@3@4@5@6@7@8@9@0@a@b@c@d@e@f@g@>@h@i@",
")@D j@>@k@l@m@n@o@p@q@r@s@t@u@v@w@x@y@z@A@B@C@D@E@F@G@H@I@J@K@L@M@u z i@",
"N@E O@E c P@Q@R@S@T@U@V@W@X@Y@Z@`@ #.#+#@###$#%#&#*#=#-#;#>#,#'#)#5 !#~#",
"N@E O@3 {#]#^#/#(#_#:#<#[#}#|#1#2#3#3#4#5#6#7#8#&#9#0#a#b#c#d#0 e#5 !#f#",
"* E O@3 ;+g#h#i#j#k#l#m#n#o#p#c q#r#s#t#u#C v#w#x#y#z#A#B#C#D#i e#5 !#f#",
"E#F#7 5 5 5 5 3 3 G#H#I#J#K#h i 3 3 5 5 5 L#k M#N#O#P#3 3 3 3 3 3 2 E Q#",
"E#R#| S#3 3 3 3 3 T#U#V#W#X#E 3 3 3 3 3 3 L#!#Y#N#Z#`#3 3 3 3 3 3  $E Q#",
"E#R#| 3 3 3 3 3 3 .$+$@$#$$$E 3 3 3 3 3 3 %$U &$*$=$-$3 3 3 3 3 3  $E Q#",
";$R#| 3 3 3 3 3 3 >$,$'$)$R !$3 3 3 3 3 3 h E ~${$]$}@%$h h h h 3  $E Q#",
";$R#| 3 3 3 3 3 3 ^$/$X.($R _$E 3 3 3 h h h [ :$<$Z+[$%$h h h h 3  $E Q#",
"E#}$U 3 3 6 6 3 F |$1$2$3$4$J.E E 3 h h h e %$:$5$6$7$h h h h h 3  $E Q#",
"8$J.9$3 q T O@6 F 0$a$b$c$d$y E } 3 h h p d ^.e$f$g$h$h h h h 3 3 [ E Q#",
"8$J.z 3 i$T O@6 %$j$k$l$m$d$y E } 3 h h p n$^.e$o$p$q$h h h 3 3 3 [ E r$",
"8$J.z 3 i$3 6 E X#s$t$'$u$v$U E E 3 3 i q i w$x$y$z$A$h 3 3 3 3 3 [ E Q#",
"8$J.z 3 F 3 3 9$B$C$D$E$#$d$J.E } 3 3 3 q u t#F$G$++H$%$3 3 3 3 3 [ E I$",
"J$J.} 3 F F E 9$B$K$R.L$#$M$} z } 3 5 x D#S#e+N$O$P$Q$%$3 3 3 3 3 [ E I$",
"R$S$t !#3 3 E 4 %$T$U$V$W$4$X$3 3 3 3 3 3 Y$Z$`$ %.%+%S#@%S#i$i$i$j E #%",
"R$S$[ $%3 3 3 3 3 G#%%&%*%K#=%F 3 3 3 3 3 u#e+-%;%>%+@'#@%@%@%@%u j E ,%",
"R$'%| k 3 3 3 h 5 h S#S#u i$@%u 3 3 3 3 3 )%!%~%{%]%^%'#'#@%@%@%u j E ,%",
"R$} O@E 5 5 5 5 5 x O@| E } 9$3 3 3 3 3 3 /%| 3 D#e#g+D#D#u D#D#u#(%3 _%",
";$_$O@u 3 3 3 5 5 6 j j E E S$E 3 3 3 3 3 :%S$} !$5 5 D#q q D#q n i 3 <%",
"[%}%7 E E E E E E E u u u T i U E U U E E z } D E U U j j j j j 3 |%1%2%",
"3%4%5%I$~#~#6%~#~#~#7%f#8%7%7%7%7%7%7%9%7%7%7%7%7%7%7%0%a%b%c%d%e%f%g%h%"};
