/* XPM */
static const char *a[] = {
/* columns rows colors chars-per-pixel */
"14 30 13 1 ",
"  c #770610",
". c #821B1E",
"X c #8E2F2B",
"o c #994439",
"O c #A55946",
"+ c #AB634D",
"@ c #B06D54",
"# c #B6785B",
"$ c #BC8261",
"% c #C7976F",
"& c #D3AB7C",
"* c #D8B683",
"= c #DEC08A",
/* pixels */
"==============",
"======##======",
"======XX======",
"====$ %% $====",
"===@++&&++@===",
"===.o====o.===",
"=@ &======& @=",
"=@ &======& @=",
"=@ &======& @=",
"=@          @=",
"=@ O++++++O @=",
"=@ &======& @=",
"=@ &======& @=",
"=%+*======*+%=",
"==============",
"==============",
"==============",
"==============",
"==============",
"==============",
"==============",
"==============",
"==============",
"==============",
"==============",
"==============",
"==============",
"==============",
"==============",
"=============="
};
