/* XPM */
static const char *colon[] = {
/* columns rows colors chars-per-pixel */
"9 30 2 1 ",
"  c #770610",
". c #DEC08A",
/* pixels */
".........",
".........",
".........",
".........",
".........",
".........",
".........",
".........",
".........",
"...   ...",
"...   ...",
"...   ...",
".........",
".........",
".........",
".........",
".........",
".........",
"...   ...",
"...   ...",
"...   ...",
".........",
".........",
".........",
".........",
".........",
".........",
".........",
".........",
"........."
};
