/* XPM */
static const char *dot[] = {
/* columns rows colors chars-per-pixel */
"9 30 3 1 ",
"  c #770610",
". c #AB634D",
"X c #DEC08A",
/* pixels */
"XXXXXXXXX",
"XXXXXXXXX",
"XXXXXXXXX",
"XXXXXXXXX",
"XXXXXXXXX",
"XXXXXXXXX",
"XXXXXXXXX",
"XXXXXXXXX",
"XXXXXXXXX",
"XXXXXXXXX",
"XXXXXXXXX",
"XXXXXXXXX",
"XXXXXXXXX",
"XXXXXXXXX",
"XXXXXXXXX",
"XXXXXXXXX",
"XXXXXXXXX",
"XXXXXXXXX",
"XXXXXXXXX",
"XXXXXXXXX",
"XXXXXXXXX",
"XXXXXXXXX",
"XXXXXXXXX",
"XXXXXXXXX",
"XXXXXXXXX",
"XXX...XXX",
"XXX   XXX",
"XXX   XXX",
"XXX...XXX",
"XXXXXXXXX"
};
