/* XPM */
static const char *m[] = {
/* columns rows colors chars-per-pixel */
"14 30 12 1 ",
"  c #770610",
". c #8E2F2B",
"X c #994439",
"o c #A55946",
"O c #AB634D",
"+ c #B06D54",
"@ c #BC8261",
"# c #C7976F",
"$ c #CDA176",
"% c #D3AB7C",
"& c #D8B683",
"* c #DEC08A",
/* pixels */
"**************",
"**************",
"**************",
"*+ %******% +*",
"*+ o@****@o +*",
"*+  X****X  +*",
"*+ %@ ## @% +*",
"*+ %$OOOO$% +*",
"*+ %**..**% +*",
"*+ %******% +*",
"*+ %******% +*",
"*+ %******% +*",
"*+ %******% +*",
"*#O&******&O#*",
"**************",
"**************",
"**************",
"**************",
"**************",
"**************",
"**************",
"**************",
"**************",
"**************",
"**************",
"**************",
"**************",
"**************",
"**************",
"**************"
};
