/* XPM */
static const char *n6[] = {
/* columns rows colors chars-per-pixel */
"21 30 4 1 ",
"  c #770610",
". c #AB634D",
"X c #C4926C",
"o c #DEC08A",
/* pixels */
"ooooooooooooooooooooo",
"ooo...............ooo",
"ooo               ooo",
"o. o.           .oooo",
"o. .............Xoooo",
"o.  .oooooooooooooooo",
"o.  .oooooooooooooooo",
"o.  .oooooooooooooooo",
"o.  .oooooooooooooooo",
"o.  .oooooooooooooooo",
"o.  .oooooooooooooooo",
"o.  .oooooooooooooooo",
"o. oooooooooooooooooo",
"oX................ooo",
"ooo               ooo",
"ooo               ooo",
"oX.................Xo",
"o. ooooooooooooooo .o",
"o.  .ooooooooooo.  .o",
"o.  .ooooooooooo.  .o",
"o.  .ooooooooooo.  .o",
"o.  .ooooooooooo.  .o",
"o.  .ooooooooooo.  .o",
"o.  .ooooooooooo.  .o",
"o.  .ooooooooooo.  .o",
"o. ............... .o",
"o. o.           .o .o",
"ooo               ooo",
"ooo...............ooo",
"ooooooooooooooooooooo"
};
