/* XPM */
static const char *p[] = {
/* columns rows colors chars-per-pixel */
"14 30 9 1 ",
"  c #770610",
". c #821B1E",
"X c #A55946",
"o c #AB634D",
"O c #B06D54",
"+ c #C7976F",
"@ c #D3AB7C",
"# c #D8B683",
"$ c #DEC08A",
/* pixels */
"$$$$$$$$$$$$$$",
"$$$$$$$$$$$$$$",
"$$$$$$$$$$$$$$",
"$O        .$$$",
"$O Xoooooooo+$",
"$O @$$$$$$@ O$",
"$O @$$$$$$@ O$",
"$O Xoooooooo+$",
"$O        .$$$",
"$O @$$$$$$$$$$",
"$O @$$$$$$$$$$",
"$O @$$$$$$$$$$",
"$O @$$$$$$$$$$",
"$+o#$$$$$$$$$$",
"$$$$$$$$$$$$$$",
"$$$$$$$$$$$$$$",
"$$$$$$$$$$$$$$",
"$$$$$$$$$$$$$$",
"$$$$$$$$$$$$$$",
"$$$$$$$$$$$$$$",
"$$$$$$$$$$$$$$",
"$$$$$$$$$$$$$$",
"$$$$$$$$$$$$$$",
"$$$$$$$$$$$$$$",
"$$$$$$$$$$$$$$",
"$$$$$$$$$$$$$$",
"$$$$$$$$$$$$$$",
"$$$$$$$$$$$$$$",
"$$$$$$$$$$$$$$",
"$$$$$$$$$$$$$$"
};
