/* XPM */
static const char *slash[] = {
/* columns rows colors chars-per-pixel */
"14 30 15 1 ",
"  c #770610",
". c #7D1017",
"X c #821B1E",
"o c #882524",
"O c #8E2F2B",
"+ c #994439",
"@ c #9F4E3F",
"# c #AB634D",
"$ c #B06D54",
"% c #B6785B",
"& c #BC8261",
"* c #C7976F",
"= c #CDA176",
"- c #D3AB7C",
"; c #DEC08A",
/* pixels */
";;;;;;;;;;;;;;",
";;;;;;;;;&##*;",
";;;;;;;;;+  $;",
";;;;;;;;;+  $;",
";;;;;;;;;+  $;",
";;;;;;;;;+  $;",
";;;;;;;*  X;;;",
";;;;;;;*  X;;;",
";;;;;;;*  X;;;",
";;;;;;;*  X;;;",
";;;;;;%@ +$;;;",
";;;;;;O  &;;;;",
";;;;;;O  &;;;;",
";;;;=#X  &;;;;",
";;;;&    &;;;;",
";;;;&  O;;;;;;",
";;;;&  O;;;;;;",
";;;;&  O;;;;;;",
";;;X  *;;;;;;;",
";;;X  *;;;;;;;",
";;;X  *;;;;;;;",
";;;X  *;;;;;;;",
";*#.o#-;;;;;;;",
";$  +;;;;;;;;;",
";$  +;;;;;;;;;",
";$  +;;;;;;;;;",
";$  +;;;;;;;;;",
";;;;;;;;;;;;;;",
";;;;;;;;;;;;;;",
";;;;;;;;;;;;;;"
};
