/* XPM */
static const char *space[] = {
/* columns rows colors chars-per-pixel */
"9 30 1 1 ",
"  c #DEC08A",
/* pixels */
"         ",
"         ",
"         ",
"         ",
"         ",
"         ",
"         ",
"         ",
"         ",
"         ",
"         ",
"         ",
"         ",
"         ",
"         ",
"         ",
"         ",
"         ",
"         ",
"         ",
"         ",
"         ",
"         ",
"         ",
"         ",
"         ",
"         ",
"         ",
"         ",
"         "
};
