/* XPM */
static char * closeI_xpm[] = {
"28 56 4 1",
" 	c #DEC08A",
".	c #723533",
"+	c #A84343",
"@	c #462926",
"                            ",
"                            ",
"                            ",
"                            ",
"                            ",
"      .               .     ",
"     .++             ++.    ",
"      +++           +++     ",
"       +++         +++      ",
"        +++       +++       ",
"         +++     +++        ",
"          +++   +++         ",
"           +++@+++          ",
"            +++++           ",
"            @+++@           ",
"            +++++           ",
"           +++@+++          ",
"          +++   +++         ",
"         +++     +++        ",
"        +++       +++       ",
"       +++         +++      ",
"      +++           +++     ",
"     .++             ++.    ",
"      .               .     ",
"                            ",
"                            ",
"                            ",
"                            ",
"                            ",
"                            ",
"                            ",
"                            ",
"                            ",
"      .               .     ",
"     .++             ++.    ",
"      +++           +++     ",
"       +++         +++      ",
"        +++       +++       ",
"         +++     +++        ",
"          +++   +++         ",
"           +++@+++          ",
"            +++++           ",
"            @+++@           ",
"            +++++           ",
"           +++@+++          ",
"          +++   +++         ",
"         +++     +++        ",
"        +++       +++       ",
"       +++         +++      ",
"      +++           +++     ",
"     .++             ++.    ",
"      .               .     ",
"                            ",
"                            ",
"                            ",
"                            "};
