/* XPM */
static char * closeA_xpm[] = {
"28 56 5 1",
" 	c #2C221E",
".	c #3A2622",
"+	c #723533",
"@	c #A84343",
"#	c #462926",
"                            ",
"                            ",
"                            ",
"                            ",
"                            ",
"     .+.             .+.    ",
"     +@@.           .@@+    ",
"     .@@@.         .@@@.    ",
"      .@@@.       .@@@.     ",
"       .@@@.     .@@@.      ",
"        .@@@.   .@@@.       ",
"         .@@@. .@@@.        ",
"          .@@@#@@@.         ",
"           .@@@@@.          ",
"            #@@@#           ",
"           .@@@@@.          ",
"          .@@@#@@@.         ",
"         .@@@. .@@@.        ",
"        .@@@.   .@@@.       ",
"       .@@@.     .@@@.      ",
"      .@@@.       .@@@.     ",
"     .@@@.         .@@@.    ",
"     +@@.           .@@+    ",
"     .+.             .+.    ",
"                            ",
"                            ",
"                            ",
"                            ",
"                            ",
"                            ",
"                            ",
"                            ",
"                            ",
"     .+.             .+.    ",
"     +@@.           .@@+    ",
"     .@@@.         .@@@.    ",
"      .@@@.       .@@@.     ",
"       .@@@.     .@@@.      ",
"        .@@@.   .@@@.       ",
"         .@@@. .@@@.        ",
"          .@@@#@@@.         ",
"           .@@@@@.          ",
"            #@@@#           ",
"           .@@@@@.          ",
"          .@@@#@@@.         ",
"         .@@@. .@@@.        ",
"        .@@@.   .@@@.       ",
"       .@@@.     .@@@.      ",
"      .@@@.       .@@@.     ",
"     .@@@.         .@@@.    ",
"     +@@.           .@@+    ",
"     .+.             .+.    ",
"                            ",
"                            ",
"                            ",
"                            "};
