/* XPM */
static char * maximizeI_xpm[] = {
"28 56 3 1",
" 	c #DEC08A",
".	c #A84343",
"+	c #723533",
"                            ",
"                            ",
"                            ",
"                            ",
"                            ",
"     ...................    ",
"     .+++++++++++++++++.    ",
"     .+               +.    ",
"     .+               +.    ",
"     .+               +.    ",
"     .+               +.    ",
"     .+               +.    ",
"     .+               +.    ",
"     .+               +.    ",
"     .+               +.    ",
"     .+               +.    ",
"     .+               +.    ",
"     .+               +.    ",
"     .+               +.    ",
"     .+               +.    ",
"     .+               +.    ",
"     .+               +.    ",
"     .+++++++++++++++++.    ",
"     ...................    ",
"                            ",
"                            ",
"                            ",
"                            ",
"                            ",
"                            ",
"                            ",
"                            ",
"     +++++++++++++++++++    ",
"    +...................+   ",
"    +.+++++++++++++++++.+   ",
"    +.+               +.+   ",
"    +.+               +.+   ",
"    +.+               +.+   ",
"    +.+               +.+   ",
"    +.+               +.+   ",
"    +.+               +.+   ",
"    +.+               +.+   ",
"    +.+               +.+   ",
"    +.+               +.+   ",
"    +.+               +.+   ",
"    +.+               +.+   ",
"    +.+               +.+   ",
"    +.+               +.+   ",
"    +.+               +.+   ",
"    +.+               +.+   ",
"    +.+++++++++++++++++.+   ",
"    +...................+   ",
"     +++++++++++++++++++    ",
"                            ",
"                            ",
"                            "};
