/* XPM */
static char * menuButtonI_xpm[] = {
"28 56 338 2",
"  	c #C3B9A4",
". 	c #DEC08A",
"+ 	c #B6A996",
"@ 	c #B49478",
"# 	c #9B7D67",
"$ 	c #795C49",
"% 	c #5A3523",
"& 	c #967361",
"* 	c #A5886E",
"= 	c #BC9C77",
"- 	c #866A56",
"; 	c #4D2E27",
"> 	c #6E5249",
", 	c #57382F",
"' 	c #47241A",
") 	c #552B20",
"! 	c #73483D",
"~ 	c #8A5E52",
"{ 	c #653028",
"] 	c #53130C",
"^ 	c #6D4F3F",
"/ 	c #795D4C",
"( 	c #9E8064",
"_ 	c #A5856B",
": 	c #997868",
"< 	c #805D4E",
"[ 	c #5B2F22",
"} 	c #4E140B",
"| 	c #53160E",
"1 	c #7C5949",
"2 	c #A98C71",
"3 	c #380301",
"4 	c #6D4C43",
"5 	c #A3846C",
"6 	c #BA9F76",
"7 	c #8F6B59",
"8 	c #50110E",
"9 	c #745142",
"0 	c #C8AA7F",
"a 	c #39120D",
"b 	c #350C07",
"c 	c #5B4239",
"d 	c #7B5D4F",
"e 	c #977660",
"f 	c #D9BA87",
"g 	c #A37B6D",
"h 	c #540E0B",
"i 	c #4E160D",
"j 	c #420A03",
"k 	c #856452",
"l 	c #8A6959",
"m 	c #450E09",
"n 	c #90715F",
"o 	c #5D372D",
"p 	c #390200",
"q 	c #CBAD81",
"r 	c #4D0F0B",
"s 	c #654136",
"t 	c #4D170D",
"u 	c #85584E",
"v 	c #A17B6B",
"w 	c #826253",
"x 	c #624337",
"y 	c #4B2E21",
"z 	c #937863",
"A 	c #876759",
"B 	c #3C0C08",
"C 	c #917864",
"D 	c #7B574B",
"E 	c #440504",
"F 	c #A98F6F",
"G 	c #BB9E77",
"H 	c #9F7D6C",
"I 	c #400904",
"J 	c #7B5D4D",
"K 	c #501D13",
"L 	c #5C281F",
"M 	c #704839",
"N 	c #7C5D4D",
"O 	c #8B6C5D",
"P 	c #987D6A",
"Q 	c #AC9379",
"R 	c #86685A",
"S 	c #3D0D0A",
"T 	c #927966",
"U 	c #856458",
"V 	c #4A0808",
"W 	c #784E46",
"X 	c #522E25",
"Y 	c #3F1D16",
"Z 	c #5B3E33",
"` 	c #8E6B61",
" .	c #3B0703",
"..	c #8F705E",
"+.	c #502018",
"@.	c #946E5E",
"#.	c #8A6B5D",
"$.	c #400C0A",
"%.	c #977B6A",
"&.	c #8B685B",
"*.	c #4A0C05",
"=.	c #A88670",
"-.	c #B09176",
";.	c #947567",
">.	c #350908",
",.	c #9C836A",
"'.	c #4A2119",
").	c #8C6D5C",
"!.	c #B7977C",
"~.	c #A68570",
"{.	c #987763",
"].	c #70473E",
"^.	c #4C100A",
"/.	c #9D7F6C",
"(.	c #866657",
"_.	c #440A00",
":.	c #987363",
"<.	c #3D0904",
"[.	c #C7AA7F",
"}.	c #4A291F",
"|.	c #4F2B27",
"1.	c #56322B",
"2.	c #431E15",
"3.	c #461E14",
"4.	c #53291B",
"5.	c #70493B",
"6.	c #6A3E38",
"7.	c #4F150D",
"8.	c #A28570",
"9.	c #7F6355",
"0.	c #3D0601",
"a.	c #AE8D77",
"b.	c #A38170",
"c.	c #90705F",
"d.	c #765341",
"e.	c #542117",
"f.	c #552920",
"g.	c #876E5A",
"h.	c #775E4A",
"i.	c #9D7F67",
"j.	c #AD8C71",
"k.	c #DCBD8A",
"l.	c #9D766A",
"m.	c #4A150D",
"n.	c #A0836F",
"o.	c #7F6357",
"p.	c #3A0609",
"q.	c #381B16",
"r.	c #46251B",
"s.	c #755341",
"t.	c #9A7361",
"u.	c #987562",
"v.	c #8A7159",
"w.	c #947463",
"x.	c #44120C",
"y.	c #9B7F6B",
"z.	c #836357",
"A.	c #46130E",
"B.	c #BB9C81",
"C.	c #B08E78",
"D.	c #9D7B65",
"E.	c #7F5D4C",
"F.	c #583126",
"G.	c #593A2C",
"H.	c #A1856A",
"I.	c #92735F",
"J.	c #44100D",
"K.	c #997D67",
"L.	c #856456",
"M.	c #4F1E0F",
"N.	c #A88F6F",
"O.	c #887057",
"P.	c #7B614C",
"Q.	c #6A473E",
"R.	c #553228",
"S.	c #421B15",
"T.	c #431812",
"U.	c #4C140D",
"V.	c #531D1A",
"W.	c #805950",
"X.	c #8E6E5B",
"Y.	c #BDA379",
"Z.	c #957661",
"`.	c #440E0C",
" +	c #977A66",
".+	c #7F5F54",
"++	c #4F2216",
"@+	c #886C5D",
"#+	c #75514A",
"$+	c #420807",
"%+	c #755049",
"&+	c #A6836E",
"*+	c #CEAF84",
"=+	c #795348",
"-+	c #4A1210",
";+	c #AF8F78",
">+	c #917460",
",+	c #440E08",
"'+	c #957664",
")+	c #76584D",
"!+	c #50291D",
"~+	c #C8A383",
"{+	c #4C0E08",
"]+	c #6A463B",
"^+	c #826759",
"/+	c #3B0705",
"(+	c #AB8F75",
"_+	c #947561",
":+	c #470E0A",
"<+	c #947462",
"[+	c #6B4D42",
"}+	c #542F24",
"|+	c #C8A380",
"1+	c #4D0F04",
"2+	c #885F52",
"3+	c #B38C7A",
"4+	c #77584F",
"5+	c #3E0B08",
"6+	c #76564B",
"7+	c #67483B",
"8+	c #442118",
"9+	c #725548",
"0+	c #997966",
"a+	c #4B110D",
"b+	c #92715F",
"c+	c #5D3C31",
"d+	c #5A3429",
"e+	c #D3B685",
"f+	c #A1846B",
"g+	c #957962",
"h+	c #876B57",
"i+	c #765346",
"j+	c #4C0F05",
"k+	c #551E14",
"l+	c #4E2017",
"m+	c #4B1C15",
"n+	c #4D1613",
"o+	c #4B0B0B",
"p+	c #57352C",
"q+	c #6A4B3E",
"r+	c #735346",
"s+	c #755749",
"t+	c #9D8066",
"u+	c #987A66",
"v+	c #460E0A",
"w+	c #8A6B5A",
"x+	c #532C23",
"y+	c #633B32",
"z+	c #A28970",
"A+	c #563C30",
"B+	c #4E2C23",
"C+	c #694641",
"D+	c #6C4743",
"E+	c #430906",
"F+	c #977061",
"G+	c #C9AA7F",
"H+	c #976F64",
"I+	c #4E0E0B",
"J+	c #CDB083",
"K+	c #917561",
"L+	c #420D07",
"M+	c #846655",
"N+	c #461710",
"O+	c #694238",
"P+	c #836153",
"Q+	c #3B110D",
"R+	c #977463",
"S+	c #4D0D09",
"T+	c #8F7463",
"U+	c #430E05",
"V+	c #7F5E51",
"W+	c #C0A37E",
"X+	c #400E08",
"Y+	c #6B473C",
"Z+	c #4C2C22",
"`+	c #664A3C",
" @	c #8D6E5C",
".@	c #460A08",
"+@	c #C8AA80",
"@@	c #917464",
"#@	c #450F07",
"$@	c #78574B",
"%@	c #A1856E",
"&@	c #400A05",
"*@	c #6C4B40",
"=@	c #A4826D",
"-@	c #43180D",
";@	c #AA8B74",
">@	c #886B5A",
",@	c #3F0704",
"'@	c #947364",
")@	c #481008",
"!@	c #755246",
"~@	c #430A07",
"{@	c #6C4F42",
"]@	c #5A3327",
"^@	c #94725E",
"/@	c #896B5B",
"(@	c #410804",
"_@	c #8D685A",
":@	c #4C120B",
"<@	c #735044",
"[@	c #8D6C59",
"}@	c #470D0B",
"|@	c #74584A",
"1@	c #785D4D",
"2@	c #8E725E",
"3@	c #8A6A59",
"4@	c #4C1109",
"5@	c #D9BB88",
"6@	c #7C624E",
"7@	c #947460",
"8@	c #AB856E",
"9@	c #6D463B",
"0@	c #4B1009",
"a@	c #755347",
"b@	c #A1826B",
"c@	c #47150C",
"d@	c #846554",
"e@	c #C5AA7D",
"f@	c #BDA37A",
"g@	c #A5856D",
"h@	c #533022",
"i@	c #664536",
"j@	c #471407",
"k@	c #480F0C",
"l@	c #420B0B",
"m@	c #826251",
"n@	c #7B5C4A",
"o@	c #C2A37F",
"p@	c #DABB88",
"q@	c #6C4B3D",
"r@	c #400A09",
"s@	c #3C110D",
"t@	c #A8896D",
"u@	c #705445",
"v@	c #90745E",
"w@	c #958A77",
"  . . . . . . . . . . . . . . . . . . . . . . . . . . + ",
". . . . . . . . . . . . . . . . . . . . @ # $ % & . . . ",
". . . . . . . . . * = . . . . - ; > , ' ) ! ~ { ] ^ . . ",
". . * / ( _ : < [ } | 1 . . . 2 3 4 5 6 . . . 7 8 9 . . ",
". . 0 a b c d e f g h i . . . . j k . . . . . l m n . . ",
". . . o p . . . . q r s . . . . t u v w x y z A B C . . ",
". . . D E . . F G H I J . . . . K L M N O P Q R S T . . ",
". . . U V W X Y Z `  .... . . . +.@.. . . . . #.$.%.. . ",
". . . &.*.=.-.. . ;.>.,.. . . . '.).. . !.~.{.].^./.. . ",
". . . (._.. . . . :.<.[.. . . . }.|.1.2.3.4.5.6.7.8.. . ",
". . . 9.0.a.b.c.d.e.f.. . . . . g.h.i.j.. . k.l.m.n.. . ",
". . . o.p.q.r.s.t.u.v.. . . . . . . . . . . . w.x.y.. . ",
". . . z.A.B.. . . . . . . . C.D.E.F.G.H.. . . I.J.K.. . ",
". . . L.M.. . . N.O.P.Q.R.S.T.U.V.W.X.Y.. . . Z.`. +. . ",
". . . .+++. . . . @+#+$+%+&+*+=+-+;+. . . . . >+,+'+. . ",
". . . )+!+. . . . . ~+{+]+. . ^+/+(+. . . . . _+:+<+. . ",
". . . [+}+. . . . . |+1+2+. 3+4+5+6+7+8+9+. . 0+a+b+. . ",
". . . c+d+. e+f+g+h+i+j+k+l+m+n+o+p+q+r+s+t+. u+v+w+. . ",
". . . x+y+. z+A+B+C+D+E+F+G+. H+I+J+. . . . . K+L+M+. . ",
". . . N+O+. . . . . P+Q+e+. . R+S+e+. . . . . T+U+V+. . ",
". . W+X+Y+. . . . . Z+`+. . .  @.@+@. . . . . @@#@$@. . ",
". . %@&@*@. . . . =@-@;@. . . >@,@J+. . . . . '@)@!@. . ",
". . _+~@{@. . . . ]@^@. . . . /@(@e+. . . . . _@:@<@. . ",
". . [@}@|@. . . 1@2@. . . . . 3@4@5@. . 6@7@8@9@0@a@. . ",
". . b@c@d@. . e@f@. . . . . . g@h@. . . . i@j@k@l@m@. . ",
". . . n@o@. . . . . . . . . . . +@. . . . p@q@r@s@t@. . ",
". . . . . . . . . . . . . . . . . . . . . . . u@v@. . . ",
". . . . . . . . . . . . . . . . . . . . . . . . . . . w@",
"  . . . . . . . . . . . . . . . . . . . . . . . . . . + ",
". . . . . . . . . . . . . . . . . . . . @ # $ % & . . . ",
". . . . . . . . . * = . . . . - ; > , ' ) ! ~ { ] ^ . . ",
". . * / ( _ : < [ } | 1 . . . 2 3 4 5 6 . . . 7 8 9 . . ",
". . 0 a b c d e f g h i . . . . j k . . . . . l m n . . ",
". . . o p . . . . q r s . . . . t u v w x y z A B C . . ",
". . . D E . . F G H I J . . . . K L M N O P Q R S T . . ",
". . . U V W X Y Z `  .... . . . +.@.. . . . . #.$.%.. . ",
". . . &.*.=.-.. . ;.>.,.. . . . '.).. . !.~.{.].^./.. . ",
". . . (._.. . . . :.<.[.. . . . }.|.1.2.3.4.5.6.7.8.. . ",
". . . 9.0.a.b.c.d.e.f.. . . . . g.h.i.j.. . k.l.m.n.. . ",
". . . o.p.q.r.s.t.u.v.. . . . . . . . . . . . w.x.y.. . ",
". . . z.A.B.. . . . . . . . C.D.E.F.G.H.. . . I.J.K.. . ",
". . . L.M.. . . N.O.P.Q.R.S.T.U.V.W.X.Y.. . . Z.`. +. . ",
". . . .+++. . . . @+#+$+%+&+*+=+-+;+. . . . . >+,+'+. . ",
". . . )+!+. . . . . ~+{+]+. . ^+/+(+. . . . . _+:+<+. . ",
". . . [+}+. . . . . |+1+2+. 3+4+5+6+7+8+9+. . 0+a+b+. . ",
". . . c+d+. e+f+g+h+i+j+k+l+m+n+o+p+q+r+s+t+. u+v+w+. . ",
". . . x+y+. z+A+B+C+D+E+F+G+. H+I+J+. . . . . K+L+M+. . ",
". . . N+O+. . . . . P+Q+e+. . R+S+e+. . . . . T+U+V+. . ",
". . W+X+Y+. . . . . Z+`+. . .  @.@+@. . . . . @@#@$@. . ",
". . %@&@*@. . . . =@-@;@. . . >@,@J+. . . . . '@)@!@. . ",
". . _+~@{@. . . . ]@^@. . . . /@(@e+. . . . . _@:@<@. . ",
". . [@}@|@. . . 1@2@. . . . . 3@4@5@. . 6@7@8@9@0@a@. . ",
". . b@c@d@. . e@f@. . . . . . g@h@. . . . i@j@k@l@m@. . ",
". . . n@o@. . . . . . . . . . . +@. . . . p@q@r@s@t@. . ",
". . . . . . . . . . . . . . . . . . . . . . . u@v@. . . ",
". . . . . . . . . . . . . . . . . . . . . . . . . . . w@"};
