/* XPM */
static char * menuButtonA_xpm[] = {
"28 56 1020 2",
"  	c #211D19",
". 	c #241C19",
"+ 	c #211C19",
"@ 	c #201D19",
"# 	c #201C18",
"$ 	c #211B18",
"% 	c #201B19",
"& 	c #221C19",
"* 	c #221C18",
"= 	c #221E19",
"- 	c #241C1A",
"; 	c #241C18",
"> 	c #241D16",
", 	c #251B15",
"' 	c #261915",
") 	c #251A15",
"! 	c #241913",
"~ 	c #281711",
"{ 	c #533432",
"] 	c #76524F",
"^ 	c #5A3A36",
"/ 	c #422723",
"( 	c #2C1A17",
"_ 	c #241E19",
": 	c #B6A996",
"< 	c #201E19",
"[ 	c #211D17",
"} 	c #252019",
"| 	c #221C16",
"1 	c #231C17",
"2 	c #221B19",
"3 	c #241A18",
"4 	c #251816",
"5 	c #271815",
"6 	c #271814",
"7 	c #231A15",
"8 	c #211D18",
"9 	c #231F1A",
"0 	c #362421",
"a 	c #6F4D4B",
"b 	c #693F3C",
"c 	c #6B433F",
"d 	c #6B3E3C",
"e 	c #966663",
"f 	c #885250",
"g 	c #733A39",
"h 	c #713E3D",
"i 	c #592925",
"j 	c #643430",
"k 	c #5B3531",
"l 	c #2C1C15",
"m 	c #261E18",
"n 	c #3A2723",
"o 	c #482F2B",
"p 	c #39211D",
"q 	c #311C17",
"r 	c #4B2E2A",
"s 	c #684542",
"t 	c #764D4A",
"u 	c #895C59",
"v 	c #764844",
"w 	c #603738",
"x 	c #2C1715",
"y 	c #3F2A25",
"z 	c #8F605D",
"A 	c #692C2A",
"B 	c #7C403E",
"C 	c #713231",
"D 	c #581717",
"E 	c #551B19",
"F 	c #56201E",
"G 	c #582321",
"H 	c #4A1710",
"I 	c #4F1410",
"J 	c #5F2E2D",
"K 	c #462A27",
"L 	c #281B16",
"M 	c #8E615F",
"N 	c #84534F",
"O 	c #7B473F",
"P 	c #8D5750",
"Q 	c #7C4641",
"R 	c #87514D",
"S 	c #6A2E2C",
"T 	c #501210",
"U 	c #4E1411",
"V 	c #672E2F",
"W 	c #5B3231",
"X 	c #221611",
"Y 	c #3C2723",
"Z 	c #865555",
"` 	c #521411",
" .	c #602020",
"..	c #602826",
"+.	c #552624",
"@.	c #4D2622",
"#.	c #582A25",
"$.	c #592420",
"%.	c #511511",
"&.	c #5C2A2A",
"*.	c #402320",
"=.	c #241813",
"-.	c #9A6967",
";.	c #5C1B17",
">.	c #581B14",
",.	c #5D221E",
"'.	c #632421",
").	c #652925",
"!.	c #69312E",
"~.	c #622C29",
"{.	c #4D1513",
"].	c #4D1411",
"^.	c #59312E",
"/.	c #1F1610",
"(.	c #261611",
"_.	c #7E4E4D",
":.	c #501916",
"<.	c #602825",
"[.	c #471D17",
"}.	c #522F29",
"|.	c #91625E",
"1.	c #915F5C",
"2.	c #733C38",
"3.	c #854B49",
"4.	c #501310",
"5.	c #613331",
"6.	c #2C1B15",
"7.	c #221612",
"8.	c #774B4A",
"9.	c #591E1D",
"0.	c #511715",
"a.	c #5D2726",
"b.	c #4C211D",
"c.	c #4F2621",
"d.	c #441712",
"e.	c #66322F",
"f.	c #511513",
"g.	c #5A211F",
"h.	c #502A27",
"i.	c #201914",
"j.	c #221510",
"k.	c #825552",
"l.	c #531C18",
"m.	c #6A2F2C",
"n.	c #7E4440",
"o.	c #945C58",
"p.	c #713733",
"q.	c #682D29",
"r.	c #844340",
"s.	c #8C4C4A",
"t.	c #541512",
"u.	c #5C3130",
"v.	c #211813",
"w.	c #543131",
"x.	c #744445",
"y.	c #4B1415",
"z.	c #633332",
"A.	c #66413E",
"B.	c #926664",
"C.	c #86504F",
"D.	c #6E3130",
"E.	c #521513",
"F.	c #652D2B",
"G.	c #4C2926",
"H.	c #261D1A",
"I.	c #8A5954",
"J.	c #5B1C19",
"K.	c #551514",
"L.	c #581A18",
"M.	c #5F2421",
"N.	c #633029",
"O.	c #69352D",
"P.	c #6F312A",
"Q.	c #702E28",
"R.	c #571815",
"S.	c #5E3031",
"T.	c #281816",
"U.	c #201C16",
"V.	c #3C2321",
"W.	c #835959",
"X.	c #491211",
"Y.	c #5A2A29",
"Z.	c #5C2A29",
"`.	c #4D1110",
" +	c #591D1C",
".+	c #692C2B",
"++	c #4F1411",
"@+	c #66322E",
"#+	c #3D231E",
"$+	c #201B18",
"%+	c #251915",
"&+	c #8C5B55",
"*+	c #5A1D18",
"=+	c #572522",
"-+	c #572724",
";+	c #502420",
">+	c #3C1912",
",+	c #5E3532",
"'+	c #703833",
")+	c #6E2E29",
"!+	c #551916",
"~+	c #5E3030",
"{+	c #261814",
"]+	c #201D16",
"^+	c #3C2622",
"/+	c #845A58",
"(+	c #491311",
"_+	c #532421",
":+	c #582D2B",
"<+	c #552C28",
"[+	c #582B26",
"}+	c #511512",
"|+	c #673530",
"1+	c #2A1A11",
"2+	c #1F1D19",
"3+	c #201713",
"4+	c #8D5B56",
"5+	c #5B1B19",
"6+	c #592524",
"7+	c #5A2C2B",
"8+	c #744A48",
"9+	c #825453",
"0+	c #A06869",
"a+	c #7F4945",
"b+	c #5E211D",
"c+	c #521814",
"d+	c #5C312F",
"e+	c #251A12",
"f+	c #3F2722",
"g+	c #895A58",
"h+	c #511816",
"i+	c #582925",
"j+	c #371F18",
"k+	c #563934",
"l+	c #5D312D",
"m+	c #6F3533",
"n+	c #551613",
"o+	c #61322E",
"p+	c #251B12",
"q+	c #221814",
"r+	c #915F5B",
"s+	c #5F2221",
"t+	c #5A1C1D",
"u+	c #6A3031",
"v+	c #562121",
"w+	c #4B1514",
"x+	c #521C1B",
"y+	c #4F1514",
"z+	c #4A1311",
"A+	c #5B2F2F",
"B+	c #251912",
"C+	c #402722",
"D+	c #8E5A58",
"E+	c #591A15",
"F+	c #7E433D",
"G+	c #894C46",
"H+	c #8F5D56",
"I+	c #733D38",
"J+	c #591A18",
"K+	c #561918",
"L+	c #5C3030",
"M+	c #271A16",
"N+	c #201A19",
"O+	c #241914",
"P+	c #613B36",
"Q+	c #713531",
"R+	c #65221F",
"S+	c #662D2A",
"T+	c #522925",
"U+	c #4E2C2B",
"V+	c #502E2E",
"W+	c #4C2323",
"X+	c #552122",
"Y+	c #46110F",
"Z+	c #572E2D",
"`+	c #241912",
" @	c #211C17",
".@	c #412722",
"+@	c #8E5A57",
"@@	c #591712",
"#@	c #60231C",
"$@	c #5C1E14",
"%@	c #5F261C",
"&@	c #672E28",
"*@	c #622A26",
"=@	c #42221F",
"-@	c #281814",
";@	c #231814",
">@	c #26130D",
",@	c #4B2824",
"'@	c #995D59",
")@	c #7D3B36",
"!@	c #67302B",
"~@	c #3B1913",
"{@	c #281914",
"]@	c #241917",
"^@	c #4C2E2F",
"/@	c #754749",
"(@	c #552E2D",
"_@	c #241A15",
":@	c #211B16",
"<@	c #8B5A57",
"[@	c #561B18",
"}@	c #67322D",
"|@	c #61352F",
"1@	c #552E27",
"2@	c #4F2721",
"3@	c #512924",
"4@	c #522F2B",
"5@	c #57322E",
"6@	c #724846",
"7@	c #6C4241",
"8@	c #8F5C5E",
"9@	c #784040",
"0@	c #7D4140",
"a@	c #672523",
"b@	c #6F302E",
"c@	c #663936",
"d@	c #2D1A15",
"e@	c #523634",
"f@	c #804F4F",
"g@	c #4C1210",
"h@	c #562E2E",
"i@	c #241916",
"j@	c #211B15",
"k@	c #3E2723",
"l@	c #875957",
"m@	c #511C19",
"n@	c #562B28",
"o@	c #291916",
"p@	c #2D1814",
"q@	c #754E4E",
"r@	c #83504E",
"s@	c #905A58",
"t@	c #6B3633",
"u@	c #6A3432",
"v@	c #5A2725",
"w@	c #480D0C",
"x@	c #48120F",
"y@	c #4E1614",
"z@	c #5F2523",
"A@	c #632A27",
"B@	c #603530",
"C@	c #301E18",
"D@	c #231E17",
"E@	c #563935",
"F@	c #875150",
"G@	c #521310",
"H@	c #5A2E2E",
"I@	c #231716",
"J@	c #211D16",
"K@	c #3E2622",
"L@	c #895757",
"M@	c #521917",
"N@	c #4D2925",
"O@	c #201912",
"P@	c #251610",
"Q@	c #7B4E50",
"R@	c #592323",
"S@	c #4F1614",
"T@	c #592221",
"U@	c #5B2B29",
"V@	c #622F2F",
"W@	c #602A2A",
"X@	c #4D1010",
"Y@	c #5B2C2A",
"Z@	c #361C16",
"`@	c #2F1B17",
" #	c #2A1B19",
".#	c #271E1A",
"+#	c #543B35",
"@#	c #84524F",
"##	c #551611",
"$#	c #5E2E2D",
"%#	c #251A17",
"&#	c #3D2321",
"*#	c #81504F",
"=#	c #511A17",
"-#	c #4F2926",
";#	c #201615",
">#	c #231615",
",#	c #2A1714",
"'#	c #432624",
")#	c #602B2E",
"!#	c #4E1413",
"~#	c #57201F",
"{#	c #401813",
"]#	c #572C2A",
"^#	c #915554",
"/#	c #531411",
"(#	c #61322C",
"_#	c #614039",
":#	c #664440",
"<#	c #311D15",
"[#	c #573935",
"}#	c #85504F",
"|#	c #531410",
"1#	c #5D2E2D",
"2#	c #261B19",
"3#	c #211B17",
"4#	c #3B1F1E",
"5#	c #764544",
"6#	c #4E1816",
"7#	c #502726",
"8#	c #231511",
"9#	c #5D3E3C",
"0#	c #8C5456",
"a#	c #501515",
"b#	c #5B2322",
"c#	c #744240",
"d#	c #8E5956",
"e#	c #864B48",
"f#	c #561612",
"g#	c #692F2B",
"h#	c #67312D",
"i#	c #632E2C",
"j#	c #6A3735",
"k#	c #5C322E",
"l#	c #583734",
"m#	c #824D4C",
"n#	c #501311",
"o#	c #592C2C",
"p#	c #251C19",
"q#	c #3A1B1B",
"r#	c #592626",
"s#	c #4A1615",
"t#	c #57292A",
"u#	c #784849",
"v#	c #6A3B3A",
"w#	c #885C58",
"x#	c #875351",
"y#	c #723B3A",
"z#	c #4A130F",
"A#	c #4D1414",
"B#	c #4F1213",
"C#	c #4B090A",
"D#	c #4C0E0B",
"E#	c #511310",
"F#	c #5E1B1B",
"G#	c #612020",
"H#	c #542421",
"I#	c #603431",
"J#	c #5A3936",
"K#	c #7B4949",
"L#	c #4A1210",
"M#	c #4B2121",
"N#	c #241B19",
"O#	c #4D2D2D",
"P#	c #511E1E",
"Q#	c #4A1715",
"R#	c #5E2E30",
"S#	c #8F5959",
"T#	c #531A1A",
"U#	c #4F1A17",
"V#	c #5A1C19",
"W#	c #5C1F1A",
"X#	c #4D1611",
"Y#	c #5D2425",
"Z#	c #5B2D2B",
"`#	c #5F2C2C",
" $	c #672D2E",
".$	c #4A100E",
"+$	c #602B28",
"@$	c #5E302C",
"#$	c #55302A",
"$$	c #41221C",
"%$	c #3A1F1A",
"&$	c #523532",
"*$	c #784A49",
"=$	c #471311",
"-$	c #431A1A",
";$	c #241714",
">$	c #2A1D1B",
",$	c #986D65",
"'$	c #5C211E",
")$	c #501917",
"!$	c #4E2827",
"~$	c #472827",
"{$	c #4B2729",
"]$	c #482623",
"^$	c #65342D",
"/$	c #773830",
"($	c #5A1A13",
"_$	c #66352E",
":$	c #331715",
"<$	c #4E312D",
"[$	c #87524D",
"}$	c #4F120D",
"|$	c #5B312D",
"1$	c #261913",
"2$	c #221C15",
"3$	c #201B16",
"4$	c #211A16",
"5$	c #503531",
"6$	c #7A4A4A",
"7$	c #4A1213",
"8$	c #512724",
"9$	c #331D19",
"0$	c #2C1B18",
"a$	c #925F56",
"b$	c #5F1D1A",
"c$	c #581D1B",
"d$	c #522E2A",
"e$	c #231E19",
"f$	c #221C1A",
"g$	c #2A1814",
"h$	c #8D5E58",
"i$	c #773F39",
"j$	c #60231E",
"k$	c #573028",
"l$	c #2C1C19",
"m$	c #533632",
"n$	c #905955",
"o$	c #54140F",
"p$	c #61302E",
"q$	c #271715",
"r$	c #231A16",
"s$	c #211917",
"t$	c #563835",
"u$	c #7A4948",
"v$	c #491112",
"w$	c #582B28",
"x$	c #3D241F",
"y$	c #3A211F",
"z$	c #955852",
"A$	c #5D1715",
"B$	c #5B1D1C",
"C$	c #542F2A",
"D$	c #271F1B",
"E$	c #261F1A",
"F$	c #492C26",
"G$	c #99645D",
"H$	c #521710",
"I$	c #602D2B",
"J$	c #3C221B",
"K$	c #231D18",
"L$	c #513330",
"M$	c #8E5755",
"N$	c #51120E",
"O$	c #5F3230",
"P$	c #271C17",
"Q$	c #251A16",
"R$	c #231915",
"S$	c #643E3A",
"T$	c #754240",
"U$	c #4B1213",
"V$	c #592927",
"W$	c #3D221F",
"X$	c #523434",
"Y$	c #985D5B",
"Z$	c #581514",
"`$	c #591E1C",
" %	c #542F29",
".%	c #292019",
"+%	c #331E16",
"@%	c #915F56",
"#%	c #753B33",
"$%	c #602823",
"%%	c #4C2726",
"&%	c #231710",
"*%	c #1D1A16",
"=%	c #4C302E",
"-%	c #50100F",
";%	c #623232",
">%	c #291814",
",%	c #5C3E3D",
"'%	c #654543",
")%	c #331513",
"!%	c #6D413D",
"~%	c #6A3532",
"{%	c #4B0F0F",
"]%	c #5B2725",
"^%	c #3F221F",
"/%	c #533335",
"(%	c #8A5253",
"_%	c #521D1C",
":%	c #4F2A26",
"<%	c #291A14",
"[%	c #7C5452",
"}%	c #8E4E4B",
"|%	c #662C25",
"1%	c #582C2B",
"2%	c #2A1A18",
"3%	c #201B15",
"4%	c #1F1717",
"5%	c #482E2C",
"6%	c #81524F",
"7%	c #501212",
"8%	c #623333",
"9%	c #26100B",
"0%	c #966968",
"a%	c #703F3D",
"b%	c #653431",
"c%	c #703E3A",
"d%	c #511914",
"e%	c #4E1212",
"f%	c #602927",
"g%	c #432521",
"h%	c #492D2D",
"i%	c #814E4E",
"j%	c #4A110E",
"k%	c #542120",
"l%	c #462523",
"m%	c #201210",
"n%	c #6D4A49",
"o%	c #602C2C",
"p%	c #4E2723",
"q%	c #2E1D1A",
"r%	c #231D19",
"s%	c #201D18",
"t%	c #392321",
"u%	c #6E4342",
"v%	c #4D1818",
"w%	c #4C2927",
"x%	c #211410",
"y%	c #533231",
"z%	c #7A4645",
"A%	c #5A1B1A",
"B%	c #511713",
"C%	c #511610",
"D%	c #551614",
"E%	c #65302F",
"F%	c #402421",
"G%	c #291917",
"H%	c #784D4B",
"I%	c #5E2D2A",
"J%	c #542B29",
"K%	c #321D1A",
"L%	c #1F1815",
"M%	c #271915",
"N%	c #2B1813",
"O%	c #231C1A",
"P%	c #211C1A",
"Q%	c #281717",
"R%	c #502E2D",
"S%	c #522D2C",
"T%	c #2F1715",
"U%	c #231715",
"V%	c #251815",
"W%	c #5F3836",
"X%	c #965958",
"Y%	c #692B27",
"Z%	c #55150E",
"`%	c #5C1B18",
" &	c #62312F",
".&	c #2B1B14",
"+&	c #261C1B",
"@&	c #3F2422",
"#&	c #532E2C",
"$&	c #341F1A",
"%&	c #231815",
"&&	c #1F1817",
"*&	c #211C18",
"=&	c #1F1B15",
"-&	c #201B17",
";&	c #201C17",
">&	c #201A1A",
",&	c #24191A",
"'&	c #281818",
")&	c #271916",
"!&	c #231D1A",
"~&	c #221D19",
"{&	c #2B1B16",
"]&	c #5E3935",
"^&	c #88524D",
"/&	c #662A28",
"(&	c #683431",
"_&	c #40221D",
":&	c #291F19",
"<&	c #251B1A",
"[&	c #251B16",
"}&	c #221C17",
"|&	c #241A19",
"1&	c #231B19",
"2&	c #201C19",
"3&	c #211B1A",
"4&	c #201C1A",
"5&	c #1F1C19",
"6&	c #1E1D19",
"7&	c #231E16",
"8&	c #3D2622",
"9&	c #442020",
"0&	c #371D1C",
"a&	c #201A17",
"b&	c #958A77",
"c&	c #C3B9A4",
"d&	c #DEC08A",
"e&	c #B49478",
"f&	c #9B7D67",
"g&	c #795C49",
"h&	c #5A3523",
"i&	c #967361",
"j&	c #A5886E",
"k&	c #BC9C77",
"l&	c #866A56",
"m&	c #4D2E27",
"n&	c #6E5249",
"o&	c #57382F",
"p&	c #47241A",
"q&	c #552B20",
"r&	c #73483D",
"s&	c #8A5E52",
"t&	c #653028",
"u&	c #53130C",
"v&	c #6D4F3F",
"w&	c #795D4C",
"x&	c #9E8064",
"y&	c #A5856B",
"z&	c #997868",
"A&	c #805D4E",
"B&	c #5B2F22",
"C&	c #4E140B",
"D&	c #53160E",
"E&	c #7C5949",
"F&	c #A98C71",
"G&	c #380301",
"H&	c #6D4C43",
"I&	c #A3846C",
"J&	c #BA9F76",
"K&	c #8F6B59",
"L&	c #50110E",
"M&	c #745142",
"N&	c #C8AA7F",
"O&	c #39120D",
"P&	c #350C07",
"Q&	c #5B4239",
"R&	c #7B5D4F",
"S&	c #977660",
"T&	c #D9BA87",
"U&	c #A37B6D",
"V&	c #540E0B",
"W&	c #4E160D",
"X&	c #420A03",
"Y&	c #856452",
"Z&	c #8A6959",
"`&	c #450E09",
" *	c #90715F",
".*	c #5D372D",
"+*	c #390200",
"@*	c #CBAD81",
"#*	c #4D0F0B",
"$*	c #654136",
"%*	c #4D170D",
"&*	c #85584E",
"**	c #A17B6B",
"=*	c #826253",
"-*	c #624337",
";*	c #4B2E21",
">*	c #937863",
",*	c #876759",
"'*	c #3C0C08",
")*	c #917864",
"!*	c #7B574B",
"~*	c #440504",
"{*	c #A98F6F",
"]*	c #BB9E77",
"^*	c #9F7D6C",
"/*	c #400904",
"(*	c #7B5D4D",
"_*	c #501D13",
":*	c #5C281F",
"<*	c #704839",
"[*	c #7C5D4D",
"}*	c #8B6C5D",
"|*	c #987D6A",
"1*	c #AC9379",
"2*	c #86685A",
"3*	c #3D0D0A",
"4*	c #927966",
"5*	c #856458",
"6*	c #4A0808",
"7*	c #784E46",
"8*	c #522E25",
"9*	c #3F1D16",
"0*	c #5B3E33",
"a*	c #8E6B61",
"b*	c #3B0703",
"c*	c #8F705E",
"d*	c #502018",
"e*	c #946E5E",
"f*	c #8A6B5D",
"g*	c #400C0A",
"h*	c #977B6A",
"i*	c #8B685B",
"j*	c #4A0C05",
"k*	c #A88670",
"l*	c #B09176",
"m*	c #947567",
"n*	c #350908",
"o*	c #9C836A",
"p*	c #4A2119",
"q*	c #8C6D5C",
"r*	c #B7977C",
"s*	c #A68570",
"t*	c #987763",
"u*	c #70473E",
"v*	c #4C100A",
"w*	c #9D7F6C",
"x*	c #866657",
"y*	c #440A00",
"z*	c #987363",
"A*	c #3D0904",
"B*	c #C7AA7F",
"C*	c #4A291F",
"D*	c #4F2B27",
"E*	c #56322B",
"F*	c #431E15",
"G*	c #461E14",
"H*	c #53291B",
"I*	c #70493B",
"J*	c #6A3E38",
"K*	c #4F150D",
"L*	c #A28570",
"M*	c #7F6355",
"N*	c #3D0601",
"O*	c #AE8D77",
"P*	c #A38170",
"Q*	c #90705F",
"R*	c #765341",
"S*	c #542117",
"T*	c #552920",
"U*	c #876E5A",
"V*	c #775E4A",
"W*	c #9D7F67",
"X*	c #AD8C71",
"Y*	c #DCBD8A",
"Z*	c #9D766A",
"`*	c #4A150D",
" =	c #A0836F",
".=	c #7F6357",
"+=	c #3A0609",
"@=	c #381B16",
"#=	c #46251B",
"$=	c #755341",
"%=	c #9A7361",
"&=	c #987562",
"*=	c #8A7159",
"==	c #947463",
"-=	c #44120C",
";=	c #9B7F6B",
">=	c #836357",
",=	c #46130E",
"'=	c #BB9C81",
")=	c #B08E78",
"!=	c #9D7B65",
"~=	c #7F5D4C",
"{=	c #583126",
"]=	c #593A2C",
"^=	c #A1856A",
"/=	c #92735F",
"(=	c #44100D",
"_=	c #997D67",
":=	c #856456",
"<=	c #4F1E0F",
"[=	c #A88F6F",
"}=	c #887057",
"|=	c #7B614C",
"1=	c #6A473E",
"2=	c #553228",
"3=	c #421B15",
"4=	c #431812",
"5=	c #4C140D",
"6=	c #531D1A",
"7=	c #805950",
"8=	c #8E6E5B",
"9=	c #BDA379",
"0=	c #957661",
"a=	c #440E0C",
"b=	c #977A66",
"c=	c #7F5F54",
"d=	c #4F2216",
"e=	c #886C5D",
"f=	c #75514A",
"g=	c #420807",
"h=	c #755049",
"i=	c #A6836E",
"j=	c #CEAF84",
"k=	c #795348",
"l=	c #AF8F78",
"m=	c #917460",
"n=	c #440E08",
"o=	c #957664",
"p=	c #76584D",
"q=	c #50291D",
"r=	c #C8A383",
"s=	c #4C0E08",
"t=	c #6A463B",
"u=	c #826759",
"v=	c #3B0705",
"w=	c #AB8F75",
"x=	c #947561",
"y=	c #470E0A",
"z=	c #947462",
"A=	c #6B4D42",
"B=	c #542F24",
"C=	c #C8A380",
"D=	c #4D0F04",
"E=	c #885F52",
"F=	c #B38C7A",
"G=	c #77584F",
"H=	c #3E0B08",
"I=	c #76564B",
"J=	c #67483B",
"K=	c #442118",
"L=	c #725548",
"M=	c #997966",
"N=	c #4B110D",
"O=	c #92715F",
"P=	c #5D3C31",
"Q=	c #5A3429",
"R=	c #D3B685",
"S=	c #A1846B",
"T=	c #957962",
"U=	c #876B57",
"V=	c #765346",
"W=	c #4C0F05",
"X=	c #551E14",
"Y=	c #4E2017",
"Z=	c #4B1C15",
"`=	c #4D1613",
" -	c #4B0B0B",
".-	c #57352C",
"+-	c #6A4B3E",
"@-	c #735346",
"#-	c #755749",
"$-	c #9D8066",
"%-	c #987A66",
"&-	c #460E0A",
"*-	c #8A6B5A",
"=-	c #532C23",
"--	c #633B32",
";-	c #A28970",
">-	c #563C30",
",-	c #4E2C23",
"'-	c #694641",
")-	c #6C4743",
"!-	c #430906",
"~-	c #977061",
"{-	c #C9AA7F",
"]-	c #976F64",
"^-	c #4E0E0B",
"/-	c #CDB083",
"(-	c #917561",
"_-	c #420D07",
":-	c #846655",
"<-	c #461710",
"[-	c #694238",
"}-	c #836153",
"|-	c #3B110D",
"1-	c #977463",
"2-	c #4D0D09",
"3-	c #8F7463",
"4-	c #430E05",
"5-	c #7F5E51",
"6-	c #C0A37E",
"7-	c #400E08",
"8-	c #6B473C",
"9-	c #4C2C22",
"0-	c #664A3C",
"a-	c #8D6E5C",
"b-	c #460A08",
"c-	c #C8AA80",
"d-	c #917464",
"e-	c #450F07",
"f-	c #78574B",
"g-	c #A1856E",
"h-	c #400A05",
"i-	c #6C4B40",
"j-	c #A4826D",
"k-	c #43180D",
"l-	c #AA8B74",
"m-	c #886B5A",
"n-	c #3F0704",
"o-	c #947364",
"p-	c #481008",
"q-	c #755246",
"r-	c #430A07",
"s-	c #6C4F42",
"t-	c #5A3327",
"u-	c #94725E",
"v-	c #896B5B",
"w-	c #410804",
"x-	c #8D685A",
"y-	c #4C120B",
"z-	c #735044",
"A-	c #8D6C59",
"B-	c #470D0B",
"C-	c #74584A",
"D-	c #785D4D",
"E-	c #8E725E",
"F-	c #8A6A59",
"G-	c #4C1109",
"H-	c #D9BB88",
"I-	c #7C624E",
"J-	c #947460",
"K-	c #AB856E",
"L-	c #6D463B",
"M-	c #4B1009",
"N-	c #755347",
"O-	c #A1826B",
"P-	c #47150C",
"Q-	c #846554",
"R-	c #C5AA7D",
"S-	c #BDA37A",
"T-	c #A5856D",
"U-	c #533022",
"V-	c #664536",
"W-	c #471407",
"X-	c #480F0C",
"Y-	c #420B0B",
"Z-	c #826251",
"`-	c #7B5C4A",
" ;	c #C2A37F",
".;	c #DABB88",
"+;	c #6C4B3D",
"@;	c #400A09",
"#;	c #3C110D",
"$;	c #A8896D",
"%;	c #705445",
"&;	c #90745E",
"  . + @ # $ + % + & * =   - ; > , ' ) ! ~ { ] ^ / ( _ : ",
"  < [ } | 1 2 3 4 5 6 7 8 9 0 a b c d e f g h i j k l   ",
"  m n o p q r s t u v w x | y z A B C D E F G H I J K   ",
"  L M N O P Q R S T U V W X Y Z `  ...j +.@.#.$.%.&.*.  ",
"  =.-.;.>.,.'.).!.~.{.].^./.(._.:.<.[.}.|.1.2.3.4.5.6.  ",
"  7.8.9.0.a.b.c.d.e.f.g.h.i.j.k.l.m.n.o.p.q.r.s.t.u.)   ",
"  v.w.x.y.z.A.B.C.D.E.F.G.H.L I.J.K.L.M.N.O.P.Q.R.S.T.  ",
"  U.V.W.X.Y.Z.`. +.+++@+#+$+%+&+*+=+-+;+>+,+'+)+!+~+{+  ",
"  ]+^+/+(+_+:+<+[+@+}+|+1+2+3+4+5+6+7+8+9+0+a+b+c+d+e+  ",
"  | f+g+h+i+j+k+l+m+n+o+p+$+q+r+s+t+u+v+X.w+x+y+z+A+B+  ",
"  [ C+D+E+F+G+H+I+J+K+L+M+N+O+P+Q+R+S+T+U+V+W+X+Y+Z+`+  ",
"   @.@+@@@#@$@%@&@*@i =@-@;@>@,@'@)@!@~@{@]@^@/@Y+(@_@  ",
"  :@C+<@[@}@|@1@2@3@4@5@6@7@8@9@0@a@b@c@d@; e@f@g@h@i@  ",
"  j@k@l@m@n@o@p@q@r@s@t@u@v@w@x@y@z@A@B@C@D@E@F@G@H@I@  ",
"  J@K@L@M@N@O@P@Q@R@S@g@T@U@V@W@X@Y@Z@`@ #.#+#@###$#%#  ",
"   @&#*#=#-#;#>#,#'#)#!#~#{#]#^#/#(#_#t :#<#[#}#|#1#2#  ",
"  3#4#5#6#7#7.8#~ 9#0#a#b#c#d#e#f#g#h#i#j#k#l#m#n#o#]@  ",
"  p#q#r#s#t#u#v#w#x#y#z#A#B#C#D#E#F#G#F H#I#J#K#L#M#%#  ",
"  N#O#P#Q#R#S#T#U#V#W#X#Y#Z#`# $.$+$@$#$$$%$&$*$=$-$;$  ",
"  >$,$'$)$!$~${$]$^$/$($_$:$<$[$}$|$1$2$3$4$5$6$7$8$9$  ",
"  0$a$b$c$d$e$f$g$h$i$j$k$l$m$n$o$p$q$r$3#s$t$u$v$w$x$  ",
"  y$z$A$B$C$D$E$F$G$H$I$J$K$L$M$N$O$P$Q$7 R$S$T$U$V$W$  ",
"  X$Y$Z$`$ %.%+%@%#%$%%%&%*%=%x#-%;%>%,%'%)%!%~%{%]%^%  ",
"  /%(%z+_%:%<%[%}%|%1%2%3%4%5%6%7%8%9%0%a%b%c%d%e%f%g%  ",
"  h%i%j%k%l%m%n%o%p%q%r%s%f$t%u%v%w%x%y%z%A%B%C%D%E%F%  ",
"  G%H%I%J%K%L%M%N%{+O%*   P%Q%R%S%T%U%V%W%X%Y%Z%`% &.&  ",
"  +&@&#&$&%&&&*&=&-&f$;&# >&,&'&)&i@!&~&{&]&^&/&(&_&:&  ",
"  <&; [&}&|&P%2 3 1&2&s%*&P%3&4&+ 5&6&~&_ 7&8&9&0&H.a&b&",
"c&d&d&d&d&d&d&d&d&d&d&d&d&d&d&d&d&d&d&d&d&d&d&d&d&d&d&: ",
"d&d&d&d&d&d&d&d&d&d&d&d&d&d&d&d&d&d&d&d&e&f&g&h&i&d&d&d&",
"d&d&d&d&d&d&d&d&d&j&k&d&d&d&d&l&m&n&o&p&q&r&s&t&u&v&d&d&",
"d&d&j&w&x&y&z&A&B&C&D&E&d&d&d&F&G&H&I&J&d&d&d&K&L&M&d&d&",
"d&d&N&O&P&Q&R&S&T&U&V&W&d&d&d&d&X&Y&d&d&d&d&d&Z&`& *d&d&",
"d&d&d&.*+*d&d&d&d&@*#*$*d&d&d&d&%*&***=*-*;*>*,*'*)*d&d&",
"d&d&d&!*~*d&d&{*]*^*/*(*d&d&d&d&_*:*<*[*}*|*1*2*3*4*d&d&",
"d&d&d&5*6*7*8*9*0*a*b*c*d&d&d&d&d*e*d&d&d&d&d&f*g*h*d&d&",
"d&d&d&i*j*k*l*d&d&m*n*o*d&d&d&d&p*q*d&d&r*s*t*u*v*w*d&d&",
"d&d&d&x*y*d&d&d&d&z*A*B*d&d&d&d&C*D*E*F*G*H*I*J*K*L*d&d&",
"d&d&d&M*N*O*P*Q*R*S*T*d&d&d&d&d&U*V*W*X*d&d&Y*Z*`* =d&d&",
"d&d&d&.=+=@=#=$=%=&=*=d&d&d&d&d&d&d&d&d&d&d&d&==-=;=d&d&",
"d&d&d&>=,='=d&d&d&d&d&d&d&d&)=!=~={=]=^=d&d&d&/=(=_=d&d&",
"d&d&d&:=<=d&d&d&[=}=|=1=2=3=4=5=6=7=8=9=d&d&d&0=a=b=d&d&",
"d&d&d&c=d=d&d&d&d&e=f=g=h=i=j=k=L#l=d&d&d&d&d&m=n=o=d&d&",
"d&d&d&p=q=d&d&d&d&d&r=s=t=d&d&u=v=w=d&d&d&d&d&x=y=z=d&d&",
"d&d&d&A=B=d&d&d&d&d&C=D=E=d&F=G=H=I=J=K=L=d&d&M=N=O=d&d&",
"d&d&d&P=Q=d&R=S=T=U=V=W=X=Y=Z=`= -.-+-@-#-$-d&%-&-*-d&d&",
"d&d&d&=---d&;->-,-'-)-!-~-{-d&]-^-/-d&d&d&d&d&(-_-:-d&d&",
"d&d&d&<-[-d&d&d&d&d&}-|-R=d&d&1-2-R=d&d&d&d&d&3-4-5-d&d&",
"d&d&6-7-8-d&d&d&d&d&9-0-d&d&d&a-b-c-d&d&d&d&d&d-e-f-d&d&",
"d&d&g-h-i-d&d&d&d&j-k-l-d&d&d&m-n-/-d&d&d&d&d&o-p-q-d&d&",
"d&d&x=r-s-d&d&d&d&t-u-d&d&d&d&v-w-R=d&d&d&d&d&x-y-z-d&d&",
"d&d&A-B-C-d&d&d&D-E-d&d&d&d&d&F-G-H-d&d&I-J-K-L-M-N-d&d&",
"d&d&O-P-Q-d&d&R-S-d&d&d&d&d&d&T-U-d&d&d&d&V-W-X-Y-Z-d&d&",
"d&d&d&`- ;d&d&d&d&d&d&d&d&d&d&d&c-d&d&d&d&.;+;@;#;$;d&d&",
"d&d&d&d&d&d&d&d&d&d&d&d&d&d&d&d&d&d&d&d&d&d&d&%;&;d&d&d&",
"d&d&d&d&d&d&d&d&d&d&d&d&d&d&d&d&d&d&d&d&d&d&d&d&d&d&d&b&"};
