/* XPM */
static char * minimizeI_xpm[] = {
"28 56 3 1",
" 	c #DEC08A",
".	c #723533",
"+	c #A84343",
"                            ",
"                            ",
"                            ",
"                            ",
"                            ",
"                            ",
"                            ",
"                            ",
"                            ",
"                            ",
"                            ",
"                            ",
"                            ",
"                            ",
"                            ",
"                            ",
"                            ",
"                            ",
"                            ",
"                            ",
"     ...................    ",
"    .+++++++++++++++++++.   ",
"     ...................    ",
"                            ",
"                            ",
"                            ",
"                            ",
"                            ",
"                            ",
"                            ",
"                            ",
"                            ",
"                            ",
"                            ",
"                            ",
"                            ",
"                            ",
"                            ",
"                            ",
"                            ",
"                            ",
"                            ",
"                            ",
"                            ",
"                            ",
"                            ",
"                            ",
"                            ",
"     ...................    ",
"    .+++++++++++++++++++.   ",
"     ...................    ",
"                            ",
"                            ",
"                            ",
"                            ",
"                            "};
