/* XPM */
static char * rolldownI_xpm[] = {
"28 56 340 2",
"  	c #C3B9A4",
". 	c #DEC08A",
"+ 	c #B6A996",
"@ 	c #A9936C",
"# 	c #9D8862",
"$ 	c #9C865F",
"% 	c #9C8760",
"& 	c #BBA376",
"* 	c #9F8A65",
"= 	c #D2B684",
"- 	c #D2B683",
"; 	c #98825D",
"> 	c #A18C67",
", 	c #97815E",
"' 	c #8E7756",
") 	c #9E8762",
"! 	c #9D8660",
"~ 	c #CBAF80",
"{ 	c #998161",
"] 	c #A08866",
"^ 	c #9D8762",
"/ 	c #C6A981",
"( 	c #AF8D7B",
"_ 	c #654B39",
": 	c #9B8364",
"< 	c #877352",
"[ 	c #91795F",
"} 	c #917A5A",
"| 	c #9F8965",
"1 	c #D8BB87",
"2 	c #D2B583",
"3 	c #897155",
"4 	c #967763",
"5 	c #3D1308",
"6 	c #5D3733",
"7 	c #593130",
"8 	c #6B453D",
"9 	c #9F8466",
"0 	c #8F795F",
"a 	c #A28D6A",
"b 	c #9E8765",
"c 	c #A08667",
"d 	c #654335",
"e 	c #69413B",
"f 	c #552E28",
"g 	c #3B0B07",
"h 	c #704A48",
"i 	c #754948",
"j 	c #411110",
"k 	c #54342A",
"l 	c #C4A97D",
"m 	c #A38D6A",
"n 	c #967E65",
"o 	c #A9926D",
"p 	c #9A8562",
"q 	c #47170E",
"r 	c #43100A",
"s 	c #7D4F4D",
"t 	c #410E0D",
"u 	c #552E2B",
"v 	c #885E5A",
"w 	c #450D0C",
"x 	c #48100E",
"y 	c #44170C",
"z 	c #A1826F",
"A 	c #8C745B",
"B 	c #8B7559",
"C 	c #96805F",
"D 	c #532D1F",
"E 	c #562C24",
"F 	c #784742",
"G 	c #460D0B",
"H 	c #885755",
"I 	c #5B2C2A",
"J 	c #4C120E",
"K 	c #502016",
"L 	c #A5846C",
"M 	c #CDAF81",
"N 	c #917959",
"O 	c #A78B70",
"P 	c #90785E",
"Q 	c #A18B69",
"R 	c #988064",
"S 	c #917A58",
"T 	c #AB8876",
"U 	c #4A1A16",
"V 	c #895051",
"W 	c #521010",
"X 	c #4B130A",
"Y 	c #9F8567",
"Z 	c #BBA276",
"` 	c #8E7656",
" .	c #A48969",
"..	c #A1876B",
"+.	c #D9BB88",
"@.	c #997E64",
"#.	c #99825E",
"$.	c #A18C66",
"%.	c #816E51",
"&.	c #9A7C65",
"*.	c #8B6052",
"=.	c #471106",
"-.	c #5D3C2F",
";.	c #A38C69",
">.	c #8E755B",
",.	c #806A4C",
"'.	c #9E8665",
").	c #95755C",
"!.	c #8C6D55",
"~.	c #A18B68",
"{.	c #957B63",
"].	c #977B64",
"^.	c #8C7458",
"/.	c #90795D",
"(.	c #BD9E88",
"_.	c #7F5D50",
":.	c #765D45",
"<.	c #A58B72",
"[.	c #45221D",
"}.	c #552B28",
"|.	c #3D150F",
"1.	c #75534C",
"2.	c #360F05",
"3.	c #825A53",
"4.	c #4E221E",
"5.	c #80654F",
"6.	c #9F8565",
"7.	c #A18571",
"8.	c #3E0E0B",
"9.	c #3D0A07",
"0.	c #825653",
"a.	c #491D1A",
"b.	c #603632",
"c.	c #6A3F3A",
"d.	c #694E39",
"e.	c #634A38",
"f.	c #623D34",
"g.	c #5E2E29",
"h.	c #A37969",
"i.	c #7D5C49",
"j.	c #87695B",
"k.	c #855F57",
"l.	c #430F09",
"m.	c #754946",
"n.	c #6B3D3A",
"o.	c #4B1813",
"p.	c #8F615C",
"q.	c #431B11",
"r.	c #A57E70",
"s.	c #410600",
"t.	c #86504E",
"u.	c #4A0F0E",
"v.	c #561C18",
"w.	c #63342C",
"x.	c #9D6B64",
"y.	c #4B140F",
"z.	c #450C06",
"A.	c #936561",
"B.	c #3D0B08",
"C.	c #78514F",
"D.	c #5C3735",
"E.	c #765A49",
"F.	c #968062",
"G.	c #5D3F31",
"H.	c #390A02",
"I.	c #400E09",
"J.	c #7A4F4C",
"K.	c #4D1A19",
"L.	c #4A100C",
"M.	c #6B3730",
"N.	c #6A3733",
"O.	c #541E1A",
"P.	c #4B100C",
"Q.	c #6B433F",
"R.	c #704945",
"S.	c #3B1510",
"T.	c #86615C",
"U.	c #3F1B15",
"V.	c #937B5C",
"W.	c #9C856D",
"X.	c #603934",
"Y.	c #451A16",
"Z.	c #3D0D0A",
"`.	c #512927",
" +	c #754A48",
".+	c #45100B",
"++	c #5E2D29",
"@+	c #592420",
"#+	c #703D3A",
"$+	c #491612",
"%+	c #420E0B",
"&+	c #7F5752",
"*+	c #5E3B36",
"=+	c #532F2B",
"-+	c #8B615B",
";+	c #4C261D",
">+	c #9B8062",
",+	c #998164",
"'+	c #461D1B",
")+	c #6D4340",
"!+	c #3B0C09",
"~+	c #3D0F0D",
"{+	c #7C5350",
"]+	c #431B18",
"^+	c #3F0E0B",
"/+	c #633532",
"(+	c #461714",
"_+	c #693937",
":+	c #55211E",
"<+	c #4A1713",
"[+	c #895B56",
"}+	c #734641",
"|+	c #5F3531",
"1+	c #996762",
"2+	c #613732",
"3+	c #886D55",
"4+	c #9A8063",
"5+	c #3E0805",
"6+	c #784D49",
"7+	c #4C221F",
"8+	c #400A08",
"9+	c #542E2B",
"0+	c #77514E",
"a+	c #390907",
"b+	c #461C19",
"c+	c #633734",
"d+	c #531D1C",
"e+	c #58211E",
"f+	c #4F120E",
"g+	c #4F1310",
"h+	c #7F504B",
"i+	c #8A5A54",
"j+	c #592B28",
"k+	c #946560",
"l+	c #815B54",
"m+	c #65493B",
"n+	c #9F8769",
"o+	c #A1866C",
"p+	c #420C06",
"q+	c #491E1A",
"r+	c #875753",
"s+	c #491412",
"t+	c #3F0D09",
"u+	c #704C49",
"v+	c #734B4A",
"w+	c #400A09",
"x+	c #5B2C2B",
"y+	c #6F3D3C",
"z+	c #4C100D",
"A+	c #4B0E0A",
"B+	c #4C100A",
"C+	c #470F08",
"D+	c #5B302B",
"E+	c #865954",
"F+	c #744C48",
"G+	c #6B4844",
"H+	c #85645E",
"I+	c #7C5E58",
"J+	c #745B4D",
"K+	c #877056",
"L+	c #9F8A6A",
"M+	c #9E8369",
"N+	c #440C07",
"O+	c #4A0F0C",
"P+	c #683837",
"Q+	c #996563",
"R+	c #4B1612",
"S+	c #48110C",
"T+	c #855957",
"U+	c #7C5251",
"V+	c #3F0D0C",
"W+	c #653C3B",
"X+	c #784F4D",
"Y+	c #3E100E",
"Z+	c #400E0B",
"`+	c #430D0A",
" @	c #3F0907",
".@	c #59302D",
"+@	c #865D5A",
"@@	c #91635F",
"#@	c #7A504C",
"$@	c #926B5F",
"%@	c #936E61",
"&@	c #956F62",
"*@	c #A2796C",
"=@	c #9B7364",
"-@	c #846253",
";@	c #90795A",
">@	c #977F61",
",@	c #430803",
"'@	c #4A0D07",
")@	c #4B0E09",
"!@	c #6F3F3C",
"~@	c #9F6B64",
"{@	c #572621",
"]@	c #4A1109",
"^@	c #7E5452",
"/@	c #89605C",
"(@	c #411C19",
"_@	c #5C3836",
":@	c #865C59",
"<@	c #522D2A",
"[@	c #3D0605",
"}@	c #430A08",
"|@	c #480E0B",
"1@	c #450B08",
"2@	c #531D1A",
"3@	c #633832",
"4@	c #5D312C",
"5@	c #592A24",
"6@	c #4C1914",
"7@	c #430C07",
"8@	c #480E09",
"9@	c #876F52",
"0@	c #967F5F",
"a@	c #360700",
"b@	c #3F0D04",
"c@	c #411005",
"d@	c #431107",
"e@	c #5E3630",
"f@	c #986D62",
"g@	c #6B493E",
"h@	c #3B0E03",
"i@	c #593732",
"j@	c #8C685D",
"k@	c #6B4F42",
"l@	c #42211C",
"m@	c #7F5B51",
"n@	c #876457",
"o@	c #472319",
"p@	c #3D1004",
"q@	c #421306",
"r@	c #441407",
"s@	c #431103",
"t@	c #461507",
"u@	c #421406",
"v@	c #431306",
"w@	c #431105",
"x@	c #441005",
"y@	c #958A77",
"  . . . . . . . . . . . . . . . . . . . . . . . . . . + ",
". . . . . . . . . . . . . . . . . . . . . . . . . . . . ",
". . . . . . . . . . . . . @ # $ % & . . . . . . . . . . ",
". . . . . . . . . . * = - . . . . . ; > . . . . . . . . ",
". . . . . . . . . , . . . . . . . . . ' ) . . . . . . . ",
". . . . . . . ! ~ . . . . . . . . . . { ] . . . . . . . ",
". . . . . . ^ . . . . . / ( _ : . . . < [ } | . . . . . ",
". . . . . 1 . . . 2 3 4 5 6 7 8 9 . . . . . 0 a . . . . ",
". . . . . b . . c d e f g h i j k l . . . . m n o . . . ",
". . . . p . . . q r s t u v w x y z . . . . . A B . . . ",
". . . C . . . . D E F G H I J K L M N O P Q . R . . . . ",
". . S . . . . . . . T U V W X Y . . Z `  ...+.@.#.. . . ",
"$.%.. . . . . . . . { &.*.=.-.. . . . . . ;.>.,.. . . . ",
". . . . . . . . . . . . '.).!.. . . . . . . . . . . . . ",
". . . . . . ~.{.].^.. /.(._.:.. . . . . . . . . . . . . ",
". . . . . . <.[.}.|.1.2.3.4.5.. . . . . . . . . . . . . ",
". . . . 6.. . 7.8.9.0.a.b.c.d.. . . . . . . . . . . . . ",
". . e.f.g.h.i.j.k.l.m.n.o.p.q.. . . . . . . . . . . . . ",
". . r.s.t.u.v.w.x.y.z.A.B.C.D.E.. . . . . . . . . . . . ",
"F.G.H.I.J.K.L.M.N.O.P.Q.R.S.T.U.V.. . . . . . . . . . . ",
"W.X.Y.Z.`. +.+++@+#+$+%+&+*+=+-+;+>+. . . . . . . . . . ",
",+'+)+!+~+{+]+^+/+(+_+:+<+[+}+|+1+2+3+. . . . . . . . . ",
"4+5+6+7+8+9+0+a+b+c+d+e+f+g+h+i+j+k+l+m+n+. . . . . . . ",
"o+p+q+r+s+t+u+v+w+x+y+z+A+B+C+D+E+F+G+H+I+J+K+L+2 . . . ",
"M+N+O+P+Q+R+S+T+U+V+W+X+Y+Z+`+`+ @.@+@@@#@$@%@&@*@=@-@;@",
">@,@'@)@!@~@{@]@^@/@(@_@:@<@[@}@G |@O+1@2@3@4@5@6@7@8@9@",
"0@a@b@c@d@e@f@g@h@i@j@k@l@m@n@o@p@q@r@s@t@q@u@v@v@w@x@9@",
". . . . . . . . . . . . . . . . . . . . . . . . . . . y@",
"  . . . . . . . . . . . . . . . . . . . . . . . . . . + ",
". . . . . . . . . . . . . . . . . . . . . . . . . . . . ",
". . . . . . . . . . . . . @ # $ % & . . . . . . . . . . ",
". . . . . . . . . . * = - . . . . . ; > . . . . . . . . ",
". . . . . . . . . , . . . . . . . . . ' ) . . . . . . . ",
". . . . . . . ! ~ . . . . . . . . . . { ] . . . . . . . ",
". . . . . . ^ . . . . . / ( _ : . . . < [ } | . . . . . ",
". . . . . 1 . . . 2 3 4 5 6 7 8 9 . . . . . 0 a . . . . ",
". . . . . b . . c d e f g h i j k l . . . . m n o . . . ",
". . . . p . . . q r s t u v w x y z . . . . . A B . . . ",
". . . C . . . . D E F G H I J K L M N O P Q . R . . . . ",
". . S . . . . . . . T U V W X Y . . Z `  ...+.@.#.. . . ",
"$.%.. . . . . . . . { &.*.=.-.. . . . . . ;.>.,.. . . . ",
". . . . . . . . . . . . '.).!.. . . . . . . . . . . . . ",
". . . . . . ~.{.].^.. /.(._.:.. . . . . . . . . . . . . ",
". . . . . . <.[.}.|.1.2.3.4.5.. . . . . . . . . . . . . ",
". . . . 6.. . 7.8.9.0.a.b.c.d.. . . . . . . . . . . . . ",
". . e.f.g.h.i.j.k.l.m.n.o.p.q.. . . . . . . . . . . . . ",
". . r.s.t.u.v.w.x.y.z.A.B.C.D.E.. . . . . . . . . . . . ",
"F.G.H.I.J.K.L.M.N.O.P.Q.R.S.T.U.V.. . . . . . . . . . . ",
"W.X.Y.Z.`. +.+++@+#+$+%+&+*+=+-+;+>+. . . . . . . . . . ",
",+'+)+!+~+{+]+^+/+(+_+:+<+[+}+|+1+2+3+. . . . . . . . . ",
"4+5+6+7+8+9+0+a+b+c+d+e+f+g+h+i+j+k+l+m+n+. . . . . . . ",
"o+p+q+r+s+t+u+v+w+x+y+z+A+B+C+D+E+F+G+H+I+J+K+L+2 . . . ",
"M+N+O+P+Q+R+S+T+U+V+W+X+Y+Z+`+`+ @.@+@@@#@$@%@&@*@=@-@;@",
">@,@'@)@!@~@{@]@^@/@(@_@:@<@[@}@G |@O+1@2@3@4@5@6@7@8@9@",
"0@a@b@c@d@e@f@g@h@i@j@k@l@m@n@o@p@q@r@s@t@q@u@v@v@w@x@9@",
". . . . . . . . . . . . . . . . . . . . . . . . . . . y@"};
