/* XPM */
static char * rollupI_xpm[] = {
"28 56 208 2",
"  	c #C3B9A4",
". 	c #DEC08A",
"+ 	c #B6A996",
"@ 	c #61432E",
"# 	c #5F4234",
"$ 	c #624A38",
"% 	c #624836",
"& 	c #634536",
"* 	c #513027",
"= 	c #664539",
"- 	c #604637",
"; 	c #5E4435",
"> 	c #604438",
", 	c #56322B",
"' 	c #5D4035",
") 	c #5F4437",
"! 	c #5D4435",
"~ 	c #5F4436",
"{ 	c #58392E",
"] 	c #624438",
"^ 	c #65483A",
"/ 	c #644838",
"( 	c #63493A",
"_ 	c #543728",
": 	c #998361",
"< 	c #BAA47B",
"[ 	c #543323",
"} 	c #B79584",
"| 	c #D0B596",
"1 	c #CFB592",
"2 	c #D5B699",
"3 	c #9F8573",
"4 	c #CDAA92",
"5 	c #D0B694",
"6 	c #CFB493",
"7 	c #D4B499",
"8 	c #A27D70",
"9 	c #CAAB90",
"0 	c #CFB291",
"a 	c #D0B491",
"b 	c #CEB08E",
"c 	c #9A7F6D",
"d 	c #C9A88F",
"e 	c #D0B291",
"f 	c #CFB390",
"g 	c #CDB194",
"h 	c #6F5447",
"i 	c #96805F",
"j 	c #593928",
"k 	c #B79881",
"l 	c #CBB68E",
"m 	c #CAB78D",
"n 	c #CDB896",
"o 	c #988673",
"p 	c #C9AF8E",
"q 	c #CBB88C",
"r 	c #CAB78C",
"s 	c #CFB792",
"t 	c #9D7E68",
"u 	c #C3AB88",
"v 	c #C9B389",
"w 	c #C7B285",
"x 	c #C6B084",
"y 	c #958066",
"z 	c #C1A884",
"A 	c #C9B187",
"B 	c #C8B284",
"C 	c #C9B08D",
"D 	c #6E5145",
"E 	c #7A5F48",
"F 	c #957B5F",
"G 	c #957B60",
"H 	c #5C3A2C",
"I 	c #B89881",
"J 	c #CDB88E",
"K 	c #CAB98D",
"L 	c #CDB996",
"M 	c #968572",
"N 	c #CBB191",
"O 	c #CBB88D",
"P 	c #CDB591",
"Q 	c #9A7D68",
"R 	c #C2AA87",
"S 	c #C5B187",
"T 	c #C6B386",
"U 	c #C5B185",
"V 	c #968269",
"W 	c #BFA684",
"X 	c #C9B188",
"Y 	c #C9B387",
"Z 	c #CDB491",
"` 	c #745548",
" .	c #A48472",
"..	c #B69683",
"+.	c #542E22",
"@.	c #5C372B",
"#.	c #B58D80",
"$.	c #CCAC90",
"%.	c #CBAC8D",
"&.	c #CDA991",
"*.	c #9A7A6D",
"=.	c #C9A68C",
"-.	c #C6AB86",
";.	c #C4A986",
">.	c #C7A78A",
",.	c #9A7464",
"'.	c #BE9E80",
").	c #C4A783",
"!.	c #C2A782",
"~.	c #C5A684",
"{.	c #967A67",
"].	c #C09D83",
"^.	c #C9A886",
"/.	c #CCAB88",
"(.	c #CEAD8F",
"_.	c #745245",
":.	c #AE8C78",
"<.	c #C4A18D",
"[.	c #4D261B",
"}.	c #593526",
"|.	c #492016",
"1.	c #4B2616",
"2.	c #4E2614",
"3.	c #532416",
"4.	c #4F1D16",
"5.	c #51251D",
"6.	c #492516",
"7.	c #472416",
"8.	c #492118",
"9.	c #451414",
"0.	c #4A2117",
"a.	c #492417",
"b.	c #472315",
"c.	c #492317",
"d.	c #451C18",
"e.	c #4D221B",
"f.	c #50261B",
"g.	c #51281A",
"h.	c #512B1D",
"i.	c #451E0F",
"j.	c #AB8976",
"k.	c #C09D89",
"l.	c #573225",
"m.	c #BBA281",
"n.	c #BAA183",
"o.	c #BBA284",
"p.	c #BB9F82",
"q.	c #A4816F",
"r.	c #754F46",
"s.	c #C39F8A",
"t.	c #BE9C84",
"u.	c #AC8B74",
"v.	c #B5937E",
"w.	c #BC9A86",
"x.	c #BB9885",
"y.	c #BA9784",
"z.	c #B2927D",
"A.	c #AB8B76",
"B.	c #C2A18C",
"C.	c #C7A691",
"D.	c #C5A38E",
"E.	c #B08E7A",
"F.	c #C6A892",
"G.	c #CEB097",
"H.	c #BF9E8B",
"I.	c #51301F",
"J.	c #BAA47A",
"K.	c #A88B70",
"L.	c #624139",
"M.	c #A48373",
"N.	c #A38372",
"O.	c #957463",
"P.	c #9D7C68",
"Q.	c #A3826D",
"R.	c #A4826D",
"S.	c #A3816F",
"T.	c #A0806C",
"U.	c #9A7966",
"V.	c #A98774",
"W.	c #AD8C79",
"X.	c #AC8876",
"Y.	c #A78371",
"Z.	c #997564",
"`.	c #AF8E7B",
" +	c #AD8C7A",
".+	c #9A796B",
"++	c #4D2B1D",
"@+	c #A78D6D",
"#+	c #614433",
"$+	c #674438",
"%+	c #54302A",
"&+	c #512F2C",
"*+	c #67473D",
"=+	c #684B3B",
"-+	c #684E3D",
";+	c #62463A",
">+	c #68493A",
",+	c #705243",
"'+	c #725344",
")+	c #725244",
"!+	c #644335",
"~+	c #6E4C3E",
"{+	c #725141",
"]+	c #71513D",
"^+	c #6C4D3A",
"/+	c #6A4C3A",
"(+	c #70513C",
"_+	c #958A77",
"  . . . . . . . . . . . . . . . . . . . . . . . . . . + ",
". . . . . . . . . . . . . . . . . . . . . . . . . . . . ",
". . . . . . . . . . . . . . . . . . . . . . . . . . . . ",
". . . . . . . . . . . . . . . . . . . . . . . . . . . . ",
". . . . . . . . . . . . . . . . . . . . . . . . . . . . ",
". . . . . . . . . . . . . . . . . . . . . . . . . . . . ",
". . . . . . . . . . . . . . . . . . . . . . . . . . . . ",
". . . . . . . . . . . . . . . . . . . . . . . . . . . . ",
". . . . . . . . . . . . . . . . . . . . . . . . . . . . ",
". . @ # $ % & * = - ; > , ' ) ! ~ { ] ^ / ( _ : < < . . ",
". . [ } | 1 2 3 4 5 6 7 8 9 0 a b c d e f g h i < < . . ",
". . j k l m n o p q r s t u v w x y z A B C D E F G . . ",
". . H I J K L M N O m P Q R S T U V W X Y Z `  ...+.. . ",
". . @.#.$.%.&.*.=.-.;.>.,.'.).!.~.{.].^./.(._.:.<.[.. . ",
". . }.|.1.2.3.4.5.6.7.8.9.0.a.b.c.d.e.f.g.h.i.j.k.l.. . ",
". . m.n.o.p.q.r.s.t.u.v.w.x.y.z.A.B.C.D.k.E.F.G.H.I.. . ",
". . < < < J.K.L.M.N.O.P.Q.R.S.T.U.V.W.X.Y.Z.`. +.+++. . ",
". . < < < < @+#+$+%+&+*+=+-+;+>+,+'+)+!+~+{+]+^+/+(+. . ",
". . . . . . . . . . . . . . . . . . . . . . . . . . . . ",
". . . . . . . . . . . . . . . . . . . . . . . . . . . . ",
". . . . . . . . . . . . . . . . . . . . . . . . . . . . ",
". . . . . . . . . . . . . . . . . . . . . . . . . . . . ",
". . . . . . . . . . . . . . . . . . . . . . . . . . . . ",
". . . . . . . . . . . . . . . . . . . . . . . . . . . . ",
". . . . . . . . . . . . . . . . . . . . . . . . . . . . ",
". . . . . . . . . . . . . . . . . . . . . . . . . . . . ",
". . . . . . . . . . . . . . . . . . . . . . . . . . . . ",
". . . . . . . . . . . . . . . . . . . . . . . . . . . _+",
"  . . . . . . . . . . . . . . . . . . . . . . . . . . + ",
". . . . . . . . . . . . . . . . . . . . . . . . . . . . ",
". . . . . . . . . . . . . . . . . . . . . . . . . . . . ",
". . . . . . . . . . . . . . . . . . . . . . . . . . . . ",
". . . . . . . . . . . . . . . . . . . . . . . . . . . . ",
". . . . . . . . . . . . . . . . . . . . . . . . . . . . ",
". . . . . . . . . . . . . . . . . . . . . . . . . . . . ",
". . . . . . . . . . . . . . . . . . . . . . . . . . . . ",
". . . . . . . . . . . . . . . . . . . . . . . . . . . . ",
". . @ # $ % & * = - ; > , ' ) ! ~ { ] ^ / ( _ : < < . . ",
". . [ } | 1 2 3 4 5 6 7 8 9 0 a b c d e f g h i < < . . ",
". . j k l m n o p q r s t u v w x y z A B C D E F G . . ",
". . H I J K L M N O m P Q R S T U V W X Y Z `  ...+.. . ",
". . @.#.$.%.&.*.=.-.;.>.,.'.).!.~.{.].^./.(._.:.<.[.. . ",
". . }.|.1.2.3.4.5.6.7.8.9.0.a.b.c.d.e.f.g.h.i.j.k.l.. . ",
". . m.n.o.p.q.r.s.t.u.v.w.x.y.z.A.B.C.D.k.E.F.G.H.I.. . ",
". . < < < J.K.L.M.N.O.P.Q.R.S.T.U.V.W.X.Y.Z.`. +.+++. . ",
". . < < < < @+#+$+%+&+*+=+-+;+>+,+'+)+!+~+{+]+^+/+(+. . ",
". . . . . . . . . . . . . . . . . . . . . . . . . . . . ",
". . . . . . . . . . . . . . . . . . . . . . . . . . . . ",
". . . . . . . . . . . . . . . . . . . . . . . . . . . . ",
". . . . . . . . . . . . . . . . . . . . . . . . . . . . ",
". . . . . . . . . . . . . . . . . . . . . . . . . . . . ",
". . . . . . . . . . . . . . . . . . . . . . . . . . . . ",
". . . . . . . . . . . . . . . . . . . . . . . . . . . . ",
". . . . . . . . . . . . . . . . . . . . . . . . . . . . ",
". . . . . . . . . . . . . . . . . . . . . . . . . . . . ",
". . . . . . . . . . . . . . . . . . . . . . . . . . . _+"};
