/* XPM */
static char * rollupA_xpm[] = {
"28 56 230 2",
"  	c #C3B9A4",
". 	c #2C221E",
"+ 	c #B6A996",
"@ 	c #61432E",
"# 	c #5F4234",
"$ 	c #624A38",
"% 	c #694837",
"& 	c #89443C",
"* 	c #A84343",
"= 	c #8A443E",
"- 	c #7E453B",
"; 	c #90433E",
"> 	c #91433F",
", 	c #90433F",
"' 	c #6B483B",
") 	c #6A4839",
"! 	c #63493A",
"~ 	c #543728",
"{ 	c #998361",
"] 	c #543323",
"^ 	c #B79584",
"/ 	c #9F8573",
"( 	c #9A7F6D",
"_ 	c #5A4C40",
": 	c #96805F",
"< 	c #593928",
"[ 	c #B79881",
"} 	c #988673",
"| 	c #958066",
"1 	c #957B5F",
"2 	c #957B60",
"3 	c #5C3A2C",
"4 	c #B89881",
"5 	c #968572",
"6 	c #968269",
"7 	c #A48472",
"8 	c #5C372B",
"9 	c #B58D80",
"0 	c #9A7A6D",
"a 	c #745F50",
"b 	c #58483C",
"c 	c #A0856B",
"d 	c #967A67",
"e 	c #AF8F77",
"f 	c #866B5C",
"g 	c #593526",
"h 	c #9C7D6B",
"i 	c #A4816F",
"j 	c #894B45",
"k 	c #765E4F",
"l 	c #9C7E6B",
"m 	c #665246",
"n 	c #8C7766",
"o 	c #A88B70",
"p 	c #A48373",
"q 	c #A38372",
"r 	c #957463",
"s 	c #9D7C68",
"t 	c #A3826D",
"u 	c #A4826D",
"v 	c #A3816F",
"w 	c #A0806C",
"x 	c #9A7966",
"y 	c #A98774",
"z 	c #765F52",
"A 	c #A78473",
"B 	c #A78371",
"C 	c #997564",
"D 	c #4F3F37",
"E 	c #765F53",
"F 	c #9A796B",
"G 	c #A78D6D",
"H 	c #793734",
"I 	c #6A3432",
"J 	c #958A77",
"K 	c #624836",
"L 	c #634536",
"M 	c #513027",
"N 	c #664539",
"O 	c #604637",
"P 	c #5E4435",
"Q 	c #604438",
"R 	c #56322B",
"S 	c #5D4035",
"T 	c #5F4437",
"U 	c #5D4435",
"V 	c #5F4436",
"W 	c #58392E",
"X 	c #624438",
"Y 	c #65483A",
"Z 	c #644838",
"` 	c #D0B596",
" .	c #CFB592",
"..	c #D5B699",
"+.	c #CDAA92",
"@.	c #D0B694",
"#.	c #CFB493",
"$.	c #D4B499",
"%.	c #A27D70",
"&.	c #CAAB90",
"*.	c #CFB291",
"=.	c #D0B491",
"-.	c #CEB08E",
";.	c #C9A88F",
">.	c #D0B291",
",.	c #CFB390",
"'.	c #CDB194",
").	c #6F5447",
"!.	c #CBB68E",
"~.	c #CAB78D",
"{.	c #CDB896",
"].	c #C9AF8E",
"^.	c #CBB88C",
"/.	c #CAB78C",
"(.	c #CFB792",
"_.	c #9D7E68",
":.	c #C3AB88",
"<.	c #C9B389",
"[.	c #C7B285",
"}.	c #C6B084",
"|.	c #C1A884",
"1.	c #C9B187",
"2.	c #C8B284",
"3.	c #C9B08D",
"4.	c #6E5145",
"5.	c #7A5F48",
"6.	c #CDB88E",
"7.	c #CAB98D",
"8.	c #CDB996",
"9.	c #CBB191",
"0.	c #CBB88D",
"a.	c #CDB591",
"b.	c #9A7D68",
"c.	c #C2AA87",
"d.	c #C5B187",
"e.	c #C6B386",
"f.	c #C5B185",
"g.	c #BFA684",
"h.	c #C9B188",
"i.	c #C9B387",
"j.	c #CDB491",
"k.	c #745548",
"l.	c #B69683",
"m.	c #542E22",
"n.	c #CCAC90",
"o.	c #CBAC8D",
"p.	c #CDA991",
"q.	c #C9A68C",
"r.	c #C6AB86",
"s.	c #C4A986",
"t.	c #C7A78A",
"u.	c #9A7464",
"v.	c #BE9E80",
"w.	c #C4A783",
"x.	c #C2A782",
"y.	c #C5A684",
"z.	c #C09D83",
"A.	c #C9A886",
"B.	c #CCAB88",
"C.	c #CEAD8F",
"D.	c #745245",
"E.	c #AE8C78",
"F.	c #C4A18D",
"G.	c #4D261B",
"H.	c #492016",
"I.	c #4B2616",
"J.	c #4E2614",
"K.	c #532416",
"L.	c #4F1D16",
"M.	c #51251D",
"N.	c #492516",
"O.	c #472416",
"P.	c #492118",
"Q.	c #451414",
"R.	c #4A2117",
"S.	c #492417",
"T.	c #472315",
"U.	c #492317",
"V.	c #451C18",
"W.	c #4D221B",
"X.	c #50261B",
"Y.	c #51281A",
"Z.	c #512B1D",
"`.	c #451E0F",
" +	c #AB8976",
".+	c #C09D89",
"++	c #573225",
"@+	c #754F46",
"#+	c #C39F8A",
"$+	c #BE9C84",
"%+	c #AC8B74",
"&+	c #B5937E",
"*+	c #BC9A86",
"=+	c #BB9885",
"-+	c #BA9784",
";+	c #B2927D",
">+	c #AB8B76",
",+	c #C2A18C",
"'+	c #C7A691",
")+	c #C5A38E",
"!+	c #B08E7A",
"~+	c #C6A892",
"{+	c #CEB097",
"]+	c #BF9E8B",
"^+	c #51301F",
"/+	c #624139",
"(+	c #AD8C79",
"_+	c #AC8876",
":+	c #AF8E7B",
"<+	c #AD8C7A",
"[+	c #4D2B1D",
"}+	c #614433",
"|+	c #674438",
"1+	c #54302A",
"2+	c #512F2C",
"3+	c #67473D",
"4+	c #684B3B",
"5+	c #684E3D",
"6+	c #62463A",
"7+	c #68493A",
"8+	c #705243",
"9+	c #725344",
"0+	c #725244",
"a+	c #644335",
"b+	c #6E4C3E",
"c+	c #725141",
"d+	c #71513D",
"e+	c #6C4D3A",
"f+	c #6A4C3A",
"g+	c #70513C",
"  . . . . . . . . . . . . . . . . . . . . . . . . . . + ",
". . . . . . . . . . . . . . . . . . . . . . . . . . . . ",
". . . . . . . . . . . . . . . . . . . . . . . . . . . . ",
". . . . . . . . . . . . . . . . . . . . . . . . . . . . ",
". . . . . . . . . . . . . . . . . . . . . . . . . . . . ",
". . . . . . . . . . . . . . . . . . . . . . . . . . . . ",
". . . . . . . . . . . . . . . . . . . . . . . . . . . . ",
". . . . . . . . . . . . . . . . . . . . . . . . . . . . ",
". . . . . . . . . . . . . . . . . . . . . . . . . . . . ",
". . @ # $ % & * = - ; > * * , ; ; * > ' ) ! ~ { . . . . ",
". . ] ^ . . . / . . . . * . . . . ( . . . _ * : . . . . ",
". . < [ . . . } . . . . * . . . . | . . . . * * 1 2 . . ",
". . 3 4 . . . 5 . . . . * . . . . 6 . . . . * 7 . * . . ",
". . 8 9 . . . 0 a . . b * c . . . d e . . . * f . * . . ",
". . g * * * * * * * * * * * * * * * * * * * * h . * . . ",
". . . . . . i j . . k . . . . . l . . . . m . n . * . . ",
". . . . . . o * p q r s t u v w x y z A B C D E F * . . ",
". . . . . . G * * H I * * * * * * * * * * * * * * * . . ",
". . . . . . . . . . . . . . . . . . . . . . . . . . . . ",
". . . . . . . . . . . . . . . . . . . . . . . . . . . . ",
". . . . . . . . . . . . . . . . . . . . . . . . . . . . ",
". . . . . . . . . . . . . . . . . . . . . . . . . . . . ",
". . . . . . . . . . . . . . . . . . . . . . . . . . . . ",
". . . . . . . . . . . . . . . . . . . . . . . . . . . . ",
". . . . . . . . . . . . . . . . . . . . . . . . . . . . ",
". . . . . . . . . . . . . . . . . . . . . . . . . . . . ",
". . . . . . . . . . . . . . . . . . . . . . . . . . . . ",
". . . . . . . . . . . . . . . . . . . . . . . . . . . J ",
"  . . . . . . . . . . . . . . . . . . . . . . . . . . + ",
". . . . . . . . . . . . . . . . . . . . . . . . . . . . ",
". . . . . . . . . . . . . . . . . . . . . . . . . . . . ",
". . . . . . . . . . . . . . . . . . . . . . . . . . . . ",
". . . . . . . . . . . . . . . . . . . . . . . . . . . . ",
". . . . . . . . . . . . . . . . . . . . . . . . . . . . ",
". . . . . . . . . . . . . . . . . . . . . . . . . . . . ",
". . . . . . . . . . . . . . . . . . . . . . . . . . . . ",
". . . . . . . . . . . . . . . . . . . . . . . . . . . . ",
". . @ # $ K L M N O P Q R S T U V W X Y Z ! ~ { . . . . ",
". . ] ^ `  .../ +.@.#.$.%.&.*.=.-.( ;.>.,.'.).: . . . . ",
". . < [ !.~.{.} ].^./.(._.:.<.[.}.| |.1.2.3.4.5.1 2 . . ",
". . 3 4 6.7.8.5 9.0.~.a.b.c.d.e.f.6 g.h.i.j.k.7 l.m.. . ",
". . 8 9 n.o.p.0 q.r.s.t.u.v.w.x.y.d z.A.B.C.D.E.F.G.. . ",
". . g H.I.J.K.L.M.N.O.P.Q.R.S.T.U.V.W.X.Y.Z.`. +.+++. . ",
". . . . . . i @+#+$+%+&+*+=+-+;+>+,+'+)+.+!+~+{+]+^+. . ",
". . . . . . o /+p q r s t u v w x y (+_+B C :+<+F [+. . ",
". . . . . . G }+|+1+2+3+4+5+6+7+8+9+0+a+b+c+d+e+f+g+. . ",
". . . . . . . . . . . . . . . . . . . . . . . . . . . . ",
". . . . . . . . . . . . . . . . . . . . . . . . . . . . ",
". . . . . . . . . . . . . . . . . . . . . . . . . . . . ",
". . . . . . . . . . . . . . . . . . . . . . . . . . . . ",
". . . . . . . . . . . . . . . . . . . . . . . . . . . . ",
". . . . . . . . . . . . . . . . . . . . . . . . . . . . ",
". . . . . . . . . . . . . . . . . . . . . . . . . . . . ",
". . . . . . . . . . . . . . . . . . . . . . . . . . . . ",
". . . . . . . . . . . . . . . . . . . . . . . . . . . . ",
". . . . . . . . . . . . . . . . . . . . . . . . . . . J "};
